%
(platform _ 1001 _ 00)
(platform 80mmx80mmx6.35mm)
(Machine)
(  vendor: Carbide3D)
(  model: Nomad Pro 883)
(  description: 3-axis - Gantry with Moving-Table)
(T1  D=3.175 CR=1.587 - ZMIN=-2.68 - ball end mill)
(T2  D=3.175 CR=0 - ZMIN=-0.075 - flat end mill)
G90
G17
G21
G28 G91 Z0
G90

(Face1 8)
T2 M6
S6250 M3
G54
G0 X55.5 Y5.443
Z15
Z5
G1 Z0.243 F1000
G18 G3 X55.183 Z-0.074 I-0.317 K0
G1 X54.447 Z-0.075
X25.553
X20.054
G17 G2 Y8.445 I0 J1.501
G1 X59.946 Y8.444
X63.845
G3 Y11.446 I0 J1.501
G1 X16.155 Y11.445
X13.142
G2 Y14.445 I0 J1.5
G1 X66.858 Y14.446
X69.265
G3 Y17.446 I0 J1.5
G1 X10.735 Y17.447
X8.804
G2 Y20.447 I0 J1.5
G1 X71.196
X72.741
G3 Y23.449 I0 J1.501
G1 X7.259 Y23.448
X6.051
G2 Y26.45 I0 J1.501
G1 X73.949 Y26.449
X74.862
G3 Y29.449 I0 J1.5
G1 X5.138 Y29.45
X4.499
G2 Y32.45 I0 J1.5
G1 X75.501 Y32.451
X75.873
G3 Y35.451 I0 J1.5
G1 X4.127
X4
G2 Y38.453 I0 J1.501
G1 X76 Y38.452
G3 Y41.454 I0 J1.501
G1 X4 Y41.453
G2 Y44.453 I0 J1.5
G1 X4.119 Y44.454
X75.881
G3 Y47.454 I0 J1.5
G1 X75.519 Y47.455
X4.481
G2 Y50.455 I0 J1.5
G1 X5.114
X74.886
G3 Y53.457 I0 J1.501
G1 X73.983 Y53.456
X6.017
G2 Y56.458 I0 J1.501
G1 X7.215 Y56.457
X72.785
G3 Y59.457 I0 J1.5
G1 X71.249 Y59.458
X8.751
G2 Y62.458 I0 J1.5
G1 X10.67 Y62.459
X69.33
G3 Y65.459 I0 J1.5
G1 X66.944
X13.056
G2 Y68.461 I0 J1.501
G1 X16.05 Y68.46
X63.95
G3 Y71.462 I0 J1.501
G1 X60.086 Y71.461
X19.914
G2 Y74.461 I0 J1.5
G1 X25.334 Y74.462
X54.666
G18 G2 X54.984 Z0.242 I0 K0.318
G0 X54.983 Z15
G17
M5
G28 G91 Z0
G90

(Spiral1  5)
T1 M6
S6250 M3
G54
G0 X39.588 Y40.279
Z15
Z3.917
G1 Z-1.707 F637.54
X39.594 Y40.277 Z-1.77
X39.611 Y40.27 Z-1.83
X39.64 Y40.259 Z-1.886
X39.678 Y40.245 Z-1.934
X39.724 Y40.227 Z-1.974
X39.777 Y40.207 Z-2.003
X39.834 Y40.185 Z-2.02
X39.893 Y40.163 Z-2.024
X39.951 Y40.141 Z-2.016
X40.002 Y40.121 Z-2.004
X40.025 Y40.101 Z-1.99
X40.039 Y40.077 Z-1.974
X40.042 Y40.03 Z-1.943
X40.032 Y40.013 Z-1.931
X40.017 Y40.001 Z-1.924
X40 Y39.998 Z-1.921
X39.939 Y39.984 Z-1.905
X39.883 Y39.971 Z-1.877
X39.833 Y39.96 Z-1.838
X39.792 Y39.951 Z-1.789
X39.762 Y39.944 Z-1.733
X39.743 Y39.939 Z-1.671
X39.737 Y39.938 Z-1.607
G0 Z5
X40.284 Y40.162
Z3.821
G1 Z-1.699 F637.54
X40.278 Z-1.763
X40.258 Y40.16 Z-1.824
X40.227 Y40.158 Z-1.88
X40.186 Y40.156 Z-1.929
X40.135 Y40.152 Z-1.968
X40.077 Y40.149 Z-1.997
X40.015 Y40.145 Z-2.013
X39.951 Y40.141 Z-2.016
X39.886 Y40.136 Z-2.013
X39.819 Y40.101 Z-1.989
X39.777 Y40.054 Z-1.957
X39.746 Y39.983 Z-1.91
X39.739 Y39.903 Z-1.857
X39.756 Y39.825 Z-1.805
X39.793 Y39.755 Z-1.759
X39.843 Y39.7 Z-1.723
X39.908 Y39.656 Z-1.693
X39.983 Y39.626 Z-1.674
X40.071 Y39.614 Z-1.666
X40.119 Y39.617 Z-1.667
X40.16 Y39.618 Z-1.663
X40.2 Y39.62 Z-1.647
X40.233 Y39.622 Z-1.622
X40.259 Y39.623 Z-1.589
X40.276 Z-1.55
X40.281 Y39.624 Z-1.509
X40.285 Y39.631 Z-1.459
X40.294 Y39.651 Z-1.415
X40.31 Y39.683 Z-1.38
X40.329 Y39.723 Z-1.358
X40.35 Y39.767 Z-1.35
X40.456 Y39.99
X40.477 Y40.034 Z-1.358
X40.496 Y40.074 Z-1.38
X40.511 Y40.106 Z-1.415
X40.521 Y40.126 Z-1.459
X40.524 Y40.133 Z-1.509
Z-1.79
X40.523 Y40.126 Z-1.836
X40.519 Y40.107 Z-1.879
X40.512 Y40.075 Z-1.913
X40.505 Y40.036 Z-1.937
X40.482 Y39.924 Z-1.866
X40.438 Y39.826 Z-1.803
X40.372 Y39.741 Z-1.748
X40.297 Y39.68 Z-1.709
X40.214 Y39.639 Z-1.682
X40.167 Y39.625 Z-1.672
X40.119 Y39.617 Z-1.667
X40.074 Y39.609 Z-1.656
X40.035 Y39.603 Z-1.632
X40.005 Y39.597 Z-1.597
X39.985 Y39.594 Z-1.555
X39.979 Y39.593 Z-1.509
X39.985 Y39.597 Z-1.46
X40.003 Y39.61 Z-1.416
X40.032 Y39.631 Z-1.381
X40.068 Y39.656 Z-1.358
X40.109 Y39.684 Z-1.351
X40.375 Y39.87
X40.415 Y39.899 Z-1.358
X40.451 Y39.924 Z-1.381
X40.48 Y39.944 Z-1.416
X40.499 Y39.957 Z-1.46
X40.505 Y39.961 Z-1.509
Z-1.803
Y39.966 Z-1.842
Y39.981 Z-1.88
Y40.005 Z-1.912
Y40.036 Z-1.937
X40.504 Y40.122 Z-1.911
X40.491 Y40.198 Z-1.895
X40.465 Y40.279 Z-1.885
X40.425 Y40.355 Z-1.883
X40.403 Y40.398 Z-1.875
X40.383 Y40.437 Z-1.852
X40.367 Y40.467 Z-1.817
X40.357 Y40.487 Z-1.773
X40.354 Y40.493 Z-1.724
X40.346 Y40.496 Z-1.675
X40.325 Y40.503 Z-1.631
X40.291 Y40.514 Z-1.596
X40.249 Y40.527 Z-1.574
X40.203 Y40.543 Z-1.566
X40.074 Y40.585
X40.027 Y40.601 Z-1.574
X39.985 Y40.614 Z-1.596
X39.952 Y40.625 Z-1.631
X39.931 Y40.632 Z-1.675
X39.923 Y40.635 Z-1.724
Z-1.9
X39.928 Y40.634 Z-1.941
X39.944 Y40.632 Z-1.978
X39.968 Y40.628 Z-2.011
X40 Y40.623 Z-2.036
X40.041 Y40.616 Z-2.016
X40.148 Y40.585 Z-1.966
X40.224 Y40.548 Z-1.935
X40.293 Y40.501 Z-1.911
X40.366 Y40.433 Z-1.892
X40.425 Y40.355 Z-1.883
X40.453 Y40.319 Z-1.872
X40.477 Y40.287 Z-1.849
X40.496 Y40.261 Z-1.814
X40.508 Y40.245 Z-1.772
X40.512 Y40.239 Z-1.725
X40.507 Y40.245 Z-1.676
X40.49 Y40.26 Z-1.632
X40.463 Y40.283 Z-1.597
X40.43 Y40.312 Z-1.574
X40.394 Y40.345 Z-1.566
X40.203 Y40.513
X40.166 Y40.546 Z-1.574
X40.133 Y40.575 Z-1.597
X40.107 Y40.598 Z-1.632
X40.09 Y40.613 Z-1.676
X40.084 Y40.618 Z-1.725
Z-1.896
X40.078 Y40.619 Z-1.939
X40.061 Z-1.978
X40.034 Y40.621 Z-2.011
X40 Y40.623 Z-2.036
X39.905 Y40.627 Z-1.982
X39.799 Y40.616 Z-1.926
X39.687 Y40.583 Z-1.873
X39.615 Y40.55 Z-1.842
X39.546 Y40.508 Z-1.817
X39.481 Y40.456 Z-1.796
X39.422 Y40.396 Z-1.781
X39.352 Y40.3 Z-1.772
X39.325 Y40.263 Z-1.762
X39.301 Y40.23 Z-1.738
X39.282 Y40.204 Z-1.703
X39.27 Y40.188 Z-1.661
X39.265 Y40.182 Z-1.614
Y40.174 Z-1.565
X39.264 Y40.152 Z-1.521
X39.262 Y40.117 Z-1.485
X39.26 Y40.072 Z-1.463
X39.257 Y40.023 Z-1.455
X39.254 Y39.974
X39.251 Y39.925 Z-1.463
X39.249 Y39.881 Z-1.485
X39.247 Y39.846 Z-1.521
X39.246 Y39.823 Z-1.565
Y39.815 Z-1.614
Z-1.705
Y39.82 Z-1.744
Y39.835 Z-1.781
Y39.859 Z-1.814
Y39.889 Z-1.839
X39.247 Y39.964 Z-1.817
X39.259 Y40.057 Z-1.795
X39.269 Y40.104 Z-1.786
X39.299 Y40.194 Z-1.775
X39.352 Y40.3 Z-1.772
X39.373 Y40.343 Z-1.763
X39.393 Y40.382 Z-1.74
X39.408 Y40.412 Z-1.705
X39.418 Y40.432 Z-1.662
X39.421 Y40.438 Z-1.613
X39.418 Y40.431 Z-1.564
X39.409 Y40.41 Z-1.52
X39.396 Y40.378 Z-1.485
X39.378 Y40.337 Z-1.462
X39.359 Y40.292 Z-1.455
X39.294 Y40.137
X39.275 Y40.092 Z-1.462
X39.258 Y40.051 Z-1.485
X39.244 Y40.019 Z-1.52
X39.236 Y39.998 Z-1.564
X39.233 Y39.991 Z-1.613
Z-1.69
X39.234 Y39.984 Z-1.738
X39.236 Y39.963 Z-1.781
X39.241 Y39.931 Z-1.816
X39.246 Y39.889 Z-1.839
X39.266 Y39.743 Z-1.746
X39.312 Y39.607 Z-1.658
X39.347 Y39.537 Z-1.614
X39.387 Y39.474 Z-1.571
X39.434 Y39.413 Z-1.531
X39.486 Y39.357 Z-1.494
X39.551 Y39.3 Z-1.456
X39.624 Y39.249 Z-1.422
X39.703 Y39.205 Z-1.393
X39.788 Y39.169 Z-1.371
X39.878 Y39.142 Z-1.355
X39.972 Y39.126 Z-1.345
X40.068 Y39.119 Z-1.342
X40.115 Y39.116 Z-1.332
X40.157 Y39.113 Z-1.309
X40.191 Y39.111 Z-1.274
X40.212 Y39.109 Z-1.231
X40.22 Z-1.183
X40.225 Y39.114 Z-1.134
X40.241 Y39.13 Z-1.09
X40.267 Y39.154 Z-1.055
X40.298 Y39.185 Z-1.032
X40.333 Y39.219 Z-1.024
X40.875 Y39.747
X40.91 Y39.781 Z-1.032
X40.942 Y39.812 Z-1.055
X40.967 Y39.836 Z-1.09
X40.983 Y39.852 Z-1.134
X40.989 Y39.858 Z-1.183
Z-1.617
X40.986 Y39.852 Z-1.662
X40.98 Y39.835 Z-1.702
X40.969 Y39.808 Z-1.736
X40.956 Y39.774 Z-1.761
X40.913 Y39.663 Z-1.692
X40.874 Y39.588 Z-1.644
X40.828 Y39.515 Z-1.599
X40.775 Y39.447 Z-1.554
X40.714 Y39.381 Z-1.51
X40.648 Y39.322 Z-1.471
X40.581 Y39.273 Z-1.438
X40.51 Y39.23 Z-1.41
X40.394 Y39.176 Z-1.376
X40.26 Y39.138 Z-1.352
X40.164 Y39.123 Z-1.344
X40.068 Y39.119 Z-1.342
X40.019 Y39.117 Z-1.333
X39.976 Y39.115 Z-1.31
X39.942 Y39.114 Z-1.275
X39.92 Y39.113 Z-1.231
X39.913 Z-1.183
X39.919 Y39.116 Z-1.134
X39.939 Y39.128 Z-1.09
X39.969 Y39.145 Z-1.055
X40.008 Y39.167 Z-1.032
X40.05 Y39.191 Z-1.024
X40.8 Y39.62
X40.842 Y39.645 Z-1.032
X40.881 Y39.667 Z-1.055
X40.911 Y39.684 Z-1.09
X40.931 Y39.695 Z-1.134
X40.937 Y39.699 Z-1.183
Z-1.625
X40.939 Y39.704 Z-1.665
X40.942 Y39.719 Z-1.703
X40.948 Y39.743 Z-1.735
X40.956 Y39.774 Z-1.761
X40.988 Y39.903 Z-1.704
X41.003 Y40.051 Z-1.649
X40.995 Y40.208 Z-1.604
X40.978 Y40.3 Z-1.582
X40.956 Y40.382 Z-1.568
X40.927 Y40.463 Z-1.558
X40.886 Y40.55 Z-1.552
X40.867 Y40.592 Z-1.542
X40.849 Y40.63 Z-1.519
X40.835 Y40.66 Z-1.484
X40.826 Y40.679 Z-1.441
X40.823 Y40.685 Z-1.394
X40.816 Y40.689 Z-1.345
X40.796 Y40.699 Z-1.301
X40.765 Y40.714 Z-1.265
X40.725 Y40.734 Z-1.243
X40.681 Y40.756 Z-1.235
X40.061 Y41.061
X40.017 Y41.082 Z-1.243
X39.977 Y41.102 Z-1.265
X39.946 Y41.117 Z-1.301
X39.926 Y41.127 Z-1.345
X39.919 Y41.131 Z-1.394
Z-1.725
X39.924 Y41.13 Z-1.767
X39.94 Y41.129 Z-1.805
X39.966 Y41.126 Z-1.838
X39.999 Y41.123 Z-1.863
X40.07 Y41.115 Z-1.827
X40.158 Y41.1 Z-1.785
X40.243 Y41.078 Z-1.745
X40.329 Y41.048 Z-1.706
X40.412 Y41.011 Z-1.672
X40.494 Y40.966 Z-1.639
X40.572 Y40.914 Z-1.612
X40.647 Y40.854 Z-1.589
X40.715 Y40.788 Z-1.571
X40.78 Y40.714 Z-1.559
X40.838 Y40.633 Z-1.553
X40.886 Y40.55 Z-1.552
X40.911 Y40.508 Z-1.544
X40.933 Y40.469 Z-1.522
X40.951 Y40.439 Z-1.487
X40.962 Y40.42 Z-1.443
X40.966 Y40.413 Z-1.394
X40.96 Y40.418 Z-1.345
X40.942 Y40.432 Z-1.3
X40.915 Y40.454 Z-1.265
X40.88 Y40.482 Z-1.243
X40.842 Y40.512 Z-1.235
X40.206 Y41.023
X40.168 Y41.054 Z-1.243
X40.133 Y41.081 Z-1.265
X40.106 Y41.103 Z-1.3
X40.088 Y41.118 Z-1.345
X40.082 Y41.122 Z-1.394
Z-1.724
X40.077 Z-1.766
X40.06 Z-1.805
X40.034 Z-1.838
X39.999 Y41.123 Z-1.863
X39.847 Z-1.78
X39.762 Y41.114 Z-1.736
X39.602 Y41.08 Z-1.657
X39.454 Y41.025 Z-1.59
X39.383 Y40.991 Z-1.561
X39.304 Y40.945 Z-1.531
X39.229 Y40.893 Z-1.505
X39.156 Y40.834 Z-1.483
X39.089 Y40.769 Z-1.465
X39.025 Y40.698 Z-1.452
X38.967 Y40.622 Z-1.444
X38.915 Y40.54 Z-1.442
X38.889 Y40.5 Z-1.433
X38.866 Y40.464 Z-1.41
X38.848 Y40.435 Z-1.375
X38.836 Y40.417 Z-1.331
X38.832 Y40.411 Z-1.283
Y40.403 Z-1.234
X38.831 Y40.38 Z-1.19
X38.83 Y40.345 Z-1.154
X38.828 Y40.301 Z-1.132
X38.826 Y40.252 Z-1.124
X38.804 Y39.707
X38.802 Y39.658 Z-1.132
X38.8 Y39.613 Z-1.154
X38.799 Y39.578 Z-1.19
X38.798 Y39.556 Z-1.234
Y39.548 Z-1.283
Z-1.526
X38.797 Y39.553 Z-1.566
X38.794 Y39.568 Z-1.603
X38.789 Y39.591 Z-1.636
X38.783 Y39.622 Z-1.661
X38.764 Y39.716 Z-1.622
X38.748 Y39.898 Z-1.558
X38.75 Y39.992 Z-1.528
X38.759 Y40.086 Z-1.502
X38.775 Y40.18 Z-1.481
X38.799 Y40.272 Z-1.464
X38.831 Y40.365 Z-1.451
X38.87 Y40.455 Z-1.444
X38.915 Y40.54 Z-1.442
X38.938 Y40.583 Z-1.433
X38.958 Y40.621 Z-1.41
X38.974 Y40.651 Z-1.375
X38.985 Y40.671 Z-1.331
X38.988 Y40.677 Z-1.283
X38.986 Y40.67 Z-1.234
X38.981 Y40.648 Z-1.189
X38.973 Y40.614 Z-1.154
X38.962 Y40.571 Z-1.132
X38.951 Y40.523 Z-1.124
X38.793 Y39.866
X38.782 Y39.819 Z-1.132
X38.771 Y39.776 Z-1.154
X38.763 Y39.742 Z-1.189
X38.758 Y39.72 Z-1.234
X38.756 Y39.712 Z-1.283
Z-1.516
X38.758 Y39.706 Z-1.561
X38.763 Y39.688 Z-1.602
X38.772 Y39.659 Z-1.637
X38.783 Y39.622 Z-1.661
X38.822 Y39.492 Z-1.583
X38.869 Y39.377 Z-1.507
X38.955 Y39.224 Z-1.406
X39.045 Y39.101 Z-1.332
X39.103 Y39.036 Z-1.294
X39.166 Y38.973 Z-1.259
X39.234 Y38.915 Z-1.225
X39.307 Y38.861 Z-1.194
X39.384 Y38.811 Z-1.166
X39.465 Y38.766 Z-1.141
X39.549 Y38.727 Z-1.118
X39.637 Y38.694 Z-1.099
X39.728 Y38.666 Z-1.083
X39.821 Y38.645 Z-1.071
X39.916 Y38.63 Z-1.063
X40.012 Y38.622 Z-1.058
X40.109 Y38.621 Z-1.057
X40.157 Y38.62 Z-1.049
X40.201 Y38.619 Z-1.027
X40.236 Z-0.992
X40.258 Y38.618 Z-0.947
X40.266 Z-0.899
X40.272 Y38.623 Z-0.85
X40.289 Y38.638 Z-0.805
X40.316 Y38.661 Z-0.77
X40.35 Y38.689 Z-0.748
X40.387 Y38.721 Z-0.74
X41.314 Y39.503
X41.351 Y39.535 Z-0.748
X41.385 Y39.563 Z-0.77
X41.412 Y39.586 Z-0.805
X41.429 Y39.6 Z-0.85
X41.435 Y39.606 Z-0.899
Z-1.451
X41.432 Y39.6 Z-1.495
X41.424 Y39.583 Z-1.536
X41.412 Y39.557 Z-1.571
X41.395 Y39.522 Z-1.595
X41.31 Y39.346 Z-1.487
X41.25 Y39.248 Z-1.422
X41.166 Y39.137 Z-1.352
X41.051 Y39.013 Z-1.281
X40.984 Y38.953 Z-1.247
X40.911 Y38.895 Z-1.214
X40.835 Y38.843 Z-1.184
X40.754 Y38.795 Z-1.157
X40.67 Y38.752 Z-1.132
X40.583 Y38.715 Z-1.111
X40.493 Y38.683 Z-1.093
X40.399 Y38.658 Z-1.079
X40.305 Y38.639 Z-1.068
X40.207 Y38.626 Z-1.061
X40.109 Y38.621 Z-1.057
X40.061 Y38.618 Z-1.048
X40.018 Y38.615 Z-1.025
X39.984 Y38.613 Z-0.99
X39.963 Y38.612 Z-0.947
X39.955 Z-0.899
X39.962 Y38.616 Z-0.85
X39.982 Y38.627 Z-0.805
X40.012 Y38.645 Z-0.77
X40.05 Y38.667 Z-0.748
X40.092 Y38.692 Z-0.74
X41.23 Y39.357
X41.272 Y39.382 Z-0.748
X41.31 Y39.404 Z-0.77
X41.341 Y39.422 Z-0.805
X41.36 Y39.434 Z-0.85
X41.367 Y39.437 Z-0.899
Z-1.452
X41.369 Y39.443 Z-1.496
X41.375 Y39.46 Z-1.536
X41.384 Y39.488 Z-1.57
X41.395 Y39.522 Z-1.595
X41.451 Y39.691 Z-1.513
X41.487 Y39.862 Z-1.436
X41.497 Y39.951 Z-1.4
X41.502 Y40.11 Z-1.349
X41.495 Y40.225 Z-1.32
X41.483 Y40.318 Z-1.299
X41.465 Y40.411 Z-1.282
X41.441 Y40.503 Z-1.267
X41.411 Y40.594 Z-1.256
X41.375 Y40.683 Z-1.248
X41.334 Y40.77 Z-1.244
X41.286 Y40.857 Z-1.243
X41.263 Y40.899 Z-1.234
X41.241 Y40.938 Z-1.212
X41.225 Y40.968 Z-1.177
X41.214 Y40.988 Z-1.133
X41.21 Y40.994 Z-1.084
X41.203 Y40.998 Z-1.035
X41.183 Y41.008 Z-0.991
X41.151 Y41.023 Z-0.955
X41.112 Y41.042 Z-0.933
X41.068 Y41.064 Z-0.925
X40.061 Y41.557
X40.016 Y41.579 Z-0.933
X39.977 Y41.598 Z-0.955
X39.945 Y41.614 Z-0.991
X39.925 Y41.623 Z-1.035
X39.918 Y41.627 Z-1.084
Z-1.558
X39.923 Z-1.599
X39.94 Y41.626 Z-1.638
X39.966 Y41.624 Z-1.671
X39.999 Y41.623 Z-1.696
X40.015 Y41.622 Z-1.688
X40.19 Y41.602 Z-1.602
X40.361 Y41.563 Z-1.518
X40.513 Y41.512 Z-1.448
X40.617 Y41.467 Z-1.403
X40.765 Y41.385 Z-1.349
X40.901 Y41.291 Z-1.309
X40.975 Y41.231 Z-1.29
X41.045 Y41.165 Z-1.274
X41.111 Y41.095 Z-1.261
X41.175 Y41.02 Z-1.251
X41.233 Y40.94 Z-1.245
X41.286 Y40.857 Z-1.243
X41.312 Y40.816 Z-1.234
X41.335 Y40.78 Z-1.211
X41.354 Y40.751 Z-1.176
X41.366 Y40.733 Z-1.132
X41.37 Y40.727 Z-1.084
X41.363 Y40.731 Z-1.035
X41.345 Y40.744 Z-0.991
X41.316 Y40.764 Z-0.955
X41.28 Y40.789 Z-0.933
X41.239 Y40.817 Z-0.925
X40.213 Y41.532
X40.173 Y41.56 Z-0.933
X40.137 Y41.585 Z-0.955
X40.108 Y41.605 Z-0.991
X40.089 Y41.618 Z-1.035
X40.083 Y41.623 Z-1.084
Z-1.556
X40.077 Z-1.599
X40.06 Z-1.638
X40.034 Z-1.671
X39.999 Z-1.696
X39.831 Y41.622 Z-1.607
X39.667 Y41.605 Z-1.521
X39.508 Y41.571 Z-1.44
X39.424 Y41.547 Z-1.4
X39.299 Y41.502 Z-1.348
X39.176 Y41.446 Z-1.303
X39.016 Y41.353 Z-1.25
X38.939 Y41.3 Z-1.228
X38.865 Y41.242 Z-1.208
X38.794 Y41.179 Z-1.19
X38.726 Y41.112 Z-1.176
X38.662 Y41.042 Z-1.164
X38.601 Y40.967 Z-1.156
X38.545 Y40.889 Z-1.15
X38.492 Y40.806 Z-1.148
X38.466 Y40.765 Z-1.139
X38.443 Y40.729 Z-1.116
X38.425 Y40.7 Z-1.081
X38.413 Y40.681 Z-1.037
X38.409 Y40.675 Z-0.989
Y40.667 Z-0.94
X38.408 Y40.645 Z-0.896
X38.406 Y40.61 Z-0.86
X38.405 Y40.566 Z-0.838
X38.403 Y40.517 Z-0.83
X38.363 Y39.453
X38.361 Y39.404 Z-0.838
X38.359 Y39.36 Z-0.86
X38.358 Y39.325 Z-0.896
X38.357 Y39.302 Z-0.94
Y39.294 Z-0.989
Z-1.365
X38.356 Y39.299 Z-1.405
X38.352 Y39.313 Z-1.442
X38.345 Y39.336 Z-1.474
X38.337 Y39.365 Z-1.499
X38.291 Y39.531 Z-1.418
X38.268 Y39.655 Z-1.365
X38.253 Y39.793 Z-1.318
X38.249 Y39.98 Z-1.263
X38.266 Y40.168 Z-1.218
X38.283 Y40.263 Z-1.199
X38.304 Y40.356 Z-1.183
X38.331 Y40.448 Z-1.17
X38.363 Y40.539 Z-1.16
X38.401 Y40.631 Z-1.152
X38.444 Y40.719 Z-1.148
X38.492 Y40.806
X38.516 Y40.848 Z-1.14
X38.537 Y40.887 Z-1.117
X38.554 Y40.917 Z-1.082
X38.565 Y40.936 Z-1.038
X38.569 Y40.943 Z-0.989
X38.568 Y40.935 Z-0.94
X38.564 Y40.913 Z-0.896
X38.558 Y40.879 Z-0.86
X38.55 Y40.835 Z-0.838
X38.541 Y40.787 Z-0.83
X38.333 Y39.602
X38.325 Y39.553 Z-0.838
X38.317 Y39.51 Z-0.86
X38.311 Y39.475 Z-0.896
X38.307 Y39.453 Z-0.94
X38.306 Y39.445 Z-0.989
Z-1.358
X38.308 Y39.44 Z-1.401
X38.314 Y39.424 Z-1.441
X38.324 Y39.398 Z-1.474
X38.337 Y39.365 Z-1.499
X38.406 Y39.189 Z-1.384
X38.461 Y39.078 Z-1.319
X38.55 Y38.93 Z-1.234
X38.654 Y38.79 Z-1.154
X38.773 Y38.659 Z-1.079
X38.906 Y38.538 Z-1.01
X39.052 Y38.43 Z-0.949
X39.211 Y38.336 Z-0.895
X39.38 Y38.257 Z-0.85
X39.559 Y38.195 Z-0.814
X39.745 Y38.151 Z-0.789
X39.936 Y38.126 Z-0.775
X40.035 Y38.121 Z-0.773
X40.083 Y38.119 Z-0.764
X40.126 Y38.117 Z-0.741
X40.16 Y38.115 Z-0.706
X40.181 Y38.114 Z-0.662
X40.189 Z-0.614
X40.195 Y38.118 Z-0.565
X40.213 Y38.132 Z-0.521
X40.242 Y38.152 Z-0.485
X40.277 Y38.178 Z-0.463
X40.317 Y38.207 Z-0.455
X41.738 Y39.249
X41.777 Y39.278 Z-0.463
X41.813 Y39.304 Z-0.485
X41.841 Y39.325 Z-0.521
X41.86 Y39.338 Z-0.565
X41.866 Y39.343 Z-0.614
Z-1.296
X41.863 Y39.338 Z-1.338
X41.856 Y39.323 Z-1.377
X41.845 Y39.299 Z-1.41
X41.83 Y39.269 Z-1.435
X41.779 Y39.162 Z-1.367
X41.691 Y39.011 Z-1.28
X41.59 Y38.867 Z-1.198
X41.474 Y38.731 Z-1.12
X41.344 Y38.604 Z-1.048
X41.202 Y38.489 Z-0.982
X41.047 Y38.387 Z-0.924
X40.88 Y38.299 Z-0.874
X40.704 Y38.227 Z-0.833
X40.52 Y38.173 Z-0.802
X40.33 Y38.138 Z-0.782
X40.232 Y38.127 Z-0.776
X40.134 Y38.122 Z-0.773
X40.035 Y38.121
X39.986 Z-0.765
X39.942 Z-0.742
X39.906 Z-0.707
X39.884 Z-0.663
X39.876 Z-0.614
X39.883 Y38.125 Z-0.565
X39.903 Y38.136 Z-0.521
X39.933 Y38.153 Z-0.485
X39.972 Y38.174 Z-0.463
X40.015 Y38.198 Z-0.455
X41.664 Y39.12
X41.706 Y39.144 Z-0.463
X41.745 Y39.166 Z-0.485
X41.776 Y39.183 Z-0.521
X41.795 Y39.194 Z-0.565
X41.802 Y39.198 Z-0.614
Z-1.3
X41.804 Y39.203 Z-1.34
X41.81 Y39.217 Z-1.377
X41.819 Y39.239 Z-1.41
X41.83 Y39.269 Z-1.435
X41.894 Y39.431 Z-1.349
X41.944 Y39.602 Z-1.275
X41.979 Y39.778 Z-1.208
X41.998 Y39.96 Z-1.147
X42 Y40.144 Z-1.093
X41.988 Y40.312 Z-1.051
X41.957 Y40.498 Z-1.014
X41.908 Y40.682 Z-0.985
X41.842 Y40.863 Z-0.966
X41.758 Y41.037 Z-0.958
X41.738 Y41.079 Z-0.949
X41.72 Y41.118 Z-0.925
X41.705 Y41.148 Z-0.89
X41.696 Y41.167 Z-0.847
X41.693 Y41.174 Z-0.799
X41.686 Y41.177 Z-0.75
X41.666 Y41.188 Z-0.706
X41.635 Y41.205 Z-0.671
X41.596 Y41.226 Z-0.648
X41.553 Y41.249 Z-0.641
X40.06 Y42.052
X40.017 Y42.076 Z-0.648
X39.978 Y42.097 Z-0.671
X39.947 Y42.113 Z-0.706
X39.927 Y42.124 Z-0.75
X39.921 Y42.128 Z-0.799
Z-1.402
X39.926 Y42.127 Z-1.443
X39.941 Y42.126 Z-1.481
X39.966 Y42.125 Z-1.513
X39.998 Y42.123 Z-1.539
X40.118 Y42.115 Z-1.474
X40.273 Y42.095 Z-1.393
X40.448 Y42.057 Z-1.314
X40.622 Y42.004 Z-1.243
X40.792 Y41.936 Z-1.179
X40.958 Y41.852 Z-1.121
X41.117 Y41.752 Z-1.071
X41.268 Y41.637 Z-1.029
X41.409 Y41.507 Z-0.996
X41.539 Y41.364 Z-0.973
X41.656 Y41.206 Z-0.96
X41.758 Y41.037 Z-0.958
X41.784 Y40.995 Z-0.95
X41.806 Y40.958 Z-0.927
X41.824 Y40.928 Z-0.892
X41.836 Y40.909 Z-0.848
X41.84 Y40.902 Z-0.799
X41.833 Y40.907 Z-0.75
X41.815 Y40.92 Z-0.706
X41.786 Y40.94 Z-0.671
X41.749 Y40.965 Z-0.648
X41.709 Y40.993 Z-0.641
X40.213 Y42.033
X40.172 Y42.061 Z-0.648
X40.136 Y42.086 Z-0.671
X40.107 Y42.106 Z-0.706
X40.089 Y42.119 Z-0.75
X40.082 Y42.124 Z-0.799
Z-1.398
X40.076 Z-1.441
X40.059 Y42.123 Z-1.48
X40.033 Z-1.514
X39.998 Z-1.539
X39.787 Y42.12 Z-1.419
X39.618 Y42.102 Z-1.334
X39.401 Y42.06 Z-1.239
X39.229 Y42.009 Z-1.169
X39.061 Y41.943 Z-1.104
X38.896 Y41.863 Z-1.046
X38.737 Y41.767 Z-0.994
X38.585 Y41.657 Z-0.951
X38.442 Y41.534 Z-0.915
X38.309 Y41.397 Z-0.888
X38.187 Y41.248 Z-0.871
X38.078 Y41.086 Z-0.863
X38.051 Y41.047 Z-0.854
X38.027 Y41.012 Z-0.83
X38.009 Y40.984 Z-0.796
X37.997 Y40.966 Z-0.752
X37.992 Y40.96 Z-0.704
Y40.952 Z-0.655
X37.991 Y40.93 Z-0.611
X37.99 Y40.895 Z-0.576
X37.989 Y40.85 Z-0.553
X37.987 Y40.801 Z-0.546
X37.93 Y39.191
X37.928 Y39.142 Z-0.553
X37.927 Y39.097 Z-0.576
X37.925 Y39.062 Z-0.611
Y39.04 Z-0.655
X37.924 Y39.032 Z-0.704
Z-1.197
X37.922 Y39.037 Z-1.24
X37.917 Y39.053 Z-1.279
X37.909 Y39.078 Z-1.312
X37.898 Y39.111 Z-1.337
X37.843 Y39.273 Z-1.264
X37.8 Y39.439 Z-1.195
X37.768 Y39.619 Z-1.129
X37.752 Y39.803 Z-1.068
X37.75 Y39.99 Z-1.013
X37.764 Y40.178 Z-0.967
X37.794 Y40.366 Z-0.928
X37.84 Y40.552 Z-0.898
X37.903 Y40.735 Z-0.877
X37.982 Y40.913 Z-0.865
X38.078 Y41.086 Z-0.863
X38.101 Y41.129 Z-0.855
X38.123 Y41.167 Z-0.832
X38.14 Y41.197 Z-0.797
X38.15 Y41.217 Z-0.753
X38.154 Y41.224 Z-0.704
X38.153 Y41.216 Z-0.655
X38.15 Y41.194 Z-0.611
X38.145 Y41.159 Z-0.576
X38.138 Y41.115 Z-0.553
X38.131 Y41.066 Z-0.545
X37.883 Y39.353
X37.876 Y39.304 Z-0.553
X37.869 Y39.261 Z-0.576
X37.864 Y39.226 Z-0.611
X37.861 Y39.204 Z-0.655
X37.86 Y39.196 Z-0.704
Z-1.193
X37.863 Y39.19 Z-1.237
X37.87 Y39.173 Z-1.279
X37.882 Y39.146 Z-1.313
X37.898 Y39.111 Z-1.337
X37.994 Y38.892 Z-1.212
X38.078 Y38.741 Z-1.126
X38.174 Y38.596 Z-1.043
X38.281 Y38.457 Z-0.964
X38.4 Y38.326 Z-0.889
X38.53 Y38.202 Z-0.819
X38.671 Y38.088 Z-0.754
X38.821 Y37.984 Z-0.694
X38.982 Y37.892 Z-0.641
X39.151 Y37.811 Z-0.596
X39.327 Y37.744 Z-0.557
X39.51 Y37.691 Z-0.527
X39.698 Y37.652 Z-0.505
X39.889 Y37.629 Z-0.492
X40.084 Y37.621 Z-0.487
X40.132 Y37.619 Z-0.479
X40.175 Y37.618 Z-0.456
X40.21 Y37.616 Z-0.421
X40.232 Y37.615 Z-0.377
X40.239 Z-0.328
X40.245 Y37.62 Z-0.279
X40.264 Y37.633 Z-0.235
X40.292 Y37.653 Z-0.2
X40.328 Y37.679 Z-0.178
X40.368 Y37.708 Z-0.17
X42.176 Y39.006
X42.216 Y39.034 Z-0.178
X42.252 Y39.06 Z-0.2
X42.281 Y39.081 Z-0.235
X42.299 Y39.094 Z-0.279
X42.305 Y39.098 Z-0.328
Z-1.141
X42.302 Y39.093 Z-1.185
X42.294 Y39.076 Z-1.225
X42.281 Y39.051 Z-1.259
X42.265 Y39.018 Z-1.284
X42.206 Y38.901 Z-1.217
X42.118 Y38.75 Z-1.131
X42.018 Y38.605 Z-1.048
X41.907 Y38.466 Z-0.969
X41.786 Y38.334 Z-0.894
X41.653 Y38.21 Z-0.823
X41.51 Y38.096 Z-0.758
X41.357 Y37.991 Z-0.698
X41.195 Y37.898 Z-0.645
X41.025 Y37.816 Z-0.599
X40.847 Y37.748 Z-0.56
X40.664 Y37.694 Z-0.529
X40.475 Y37.654 Z-0.506
X40.281 Y37.63 Z-0.492
X40.084 Y37.621 Z-0.487
X40.036 Y37.619 Z-0.478
X39.993 Y37.617 Z-0.456
X39.959 Y37.616 Z-0.421
X39.937 Y37.615 Z-0.377
X39.929 Y37.614 Z-0.329
X39.936 Y37.618 Z-0.279
X39.956 Y37.63 Z-0.235
X39.986 Y37.647 Z-0.2
X40.024 Y37.669 Z-0.178
X40.067 Y37.694 Z-0.17
X42.093 Y38.86
X42.136 Y38.885 Z-0.178
X42.174 Y38.907 Z-0.2
X42.205 Y38.924 Z-0.235
X42.224 Y38.936 Z-0.279
X42.231 Y38.939 Z-0.329
Z-1.143
X42.233 Y38.945 Z-1.186
X42.24 Y38.96 Z-1.225
X42.251 Y38.985 Z-1.259
X42.265 Y39.018 Z-1.284
X42.332 Y39.175 Z-1.205
X42.385 Y39.325 Z-1.136
X42.433 Y39.497 Z-1.064
X42.468 Y39.674 Z-0.996
X42.491 Y39.854 Z-0.933
X42.501 Y40.038 Z-0.876
X42.497 Y40.224 Z-0.825
X42.479 Y40.41 Z-0.781
X42.447 Y40.597 Z-0.743
X42.4 Y40.782 Z-0.714
X42.34 Y40.964 Z-0.692
X42.265 Y41.141 Z-0.678
X42.176 Y41.315 Z-0.673
X42.154 Y41.357 Z-0.664
X42.134 Y41.396 Z-0.641
X42.118 Y41.426 Z-0.606
X42.108 Y41.445 Z-0.562
X42.105 Y41.452 Z-0.514
X42.098 Y41.456 Z-0.465
X42.078 Y41.466 Z-0.421
X42.047 Y41.483 Z-0.385
X42.008 Y41.504 Z-0.363
X41.965 Y41.527 Z-0.355
X40.052 Y42.553
X40.009 Y42.577 Z-0.363
X39.97 Y42.598 Z-0.385
X39.939 Y42.614 Z-0.421
X39.919 Y42.625 Z-0.465
X39.912 Y42.629 Z-0.514
Z-1.233
X39.918 Y42.628 Z-1.276
X39.935 Y42.627 Z-1.315
X39.962 Y42.625 Z-1.348
X39.996 Y42.623 Z-1.373
X40.213 Y42.607 Z-1.274
X40.388 Y42.582 Z-1.194
X40.563 Y42.544 Z-1.119
X40.737 Y42.493 Z-1.047
X40.909 Y42.43 Z-0.98
X41.077 Y42.354 Z-0.919
X41.241 Y42.265 Z-0.863
X41.399 Y42.164 Z-0.814
X41.551 Y42.051 Z-0.771
X41.695 Y41.926 Z-0.735
X41.831 Y41.789 Z-0.708
X41.956 Y41.643 Z-0.688
X42.072 Y41.483 Z-0.676
X42.176 Y41.315 Z-0.673
X42.201 Y41.274 Z-0.664
X42.224 Y41.236 Z-0.641
X42.242 Y41.207 Z-0.606
X42.254 Y41.188 Z-0.562
X42.258 Y41.182 Z-0.514
X42.251 Y41.186 Z-0.465
X42.232 Y41.199 Z-0.42
X42.203 Y41.218 Z-0.385
X42.166 Y41.243 Z-0.363
X42.125 Y41.27 Z-0.355
X40.223 Y42.536
X40.182 Y42.563 Z-0.363
X40.145 Y42.587 Z-0.385
X40.116 Y42.607 Z-0.42
X40.097 Y42.619 Z-0.465
X40.091 Y42.624 Z-0.514
Z-1.228
X40.084 Y42.623 Z-1.273
X40.065 Z-1.315
X40.035 Z-1.349
X39.996 Z-1.373
X39.794 Y42.621 Z-1.273
X39.62 Y42.606 Z-1.191
X39.446 Y42.581 Z-1.113
X39.272 Y42.543 Z-1.038
X39.1 Y42.493 Z-0.967
X38.93 Y42.431 Z-0.901
X38.763 Y42.356 Z-0.839
X38.601 Y42.27 Z-0.784
X38.443 Y42.172 Z-0.734
X38.291 Y42.062 Z-0.69
X38.146 Y41.94 Z-0.653
X38.008 Y41.808 Z-0.623
X37.88 Y41.665 Z-0.6
X37.762 Y41.513 Z-0.585
X37.655 Y41.352 Z-0.578
X37.628 Y41.312 Z-0.569
X37.605 Y41.277 Z-0.546
X37.586 Y41.249 Z-0.511
X37.574 Y41.231 Z-0.467
X37.57 Y41.225 Z-0.419
Y41.217 Z-0.37
X37.569 Y41.195 Z-0.326
X37.568 Y41.16 Z-0.291
X37.566 Y41.115 Z-0.268
X37.565 Y41.066 Z-0.261
X37.497 Y38.939
X37.495 Y38.89 Z-0.268
X37.494 Y38.846 Z-0.291
X37.492 Y38.81 Z-0.326
Y38.788 Z-0.37
X37.491 Y38.78 Z-0.419
Z-1.053
X37.489 Y38.785 Z-1.095
X37.483 Y38.801 Z-1.135
X37.473 Y38.826 Z-1.168
X37.46 Y38.859 Z-1.193
X37.433 Y38.926 Z-1.161
X37.354 Y39.164 Z-1.053
X37.31 Y39.34 Z-0.982
X37.278 Y39.52 Z-0.915
X37.257 Y39.703 Z-0.852
X37.249 Y39.888 Z-0.795
X37.253 Y40.076 Z-0.744
X37.271 Y40.264 Z-0.699
X37.301 Y40.452 Z-0.66
X37.345 Y40.638 Z-0.629
X37.402 Y40.822 Z-0.604
X37.472 Y41.002 Z-0.588
X37.557 Y41.18 Z-0.579
X37.655 Y41.352 Z-0.578
X37.679 Y41.395 Z-0.57
X37.701 Y41.433 Z-0.548
X37.718 Y41.463 Z-0.512
X37.729 Y41.483 Z-0.468
X37.733 Y41.49 Z-0.419
X37.732 Y41.482 Z-0.37
X37.729 Y41.459 Z-0.326
X37.725 Y41.425 Z-0.291
X37.72 Y41.381 Z-0.268
X37.714 Y41.332 Z-0.261
X37.441 Y39.099
X37.435 Y39.051 Z-0.268
X37.429 Y39.007 Z-0.291
X37.425 Y38.972 Z-0.326
X37.422 Y38.949 Z-0.37
X37.421 Y38.942 Z-0.419
Z-1.049
X37.424 Y38.936 Z-1.094
X37.432 Y38.919 Z-1.135
X37.444 Y38.893 Z-1.169
X37.46 Y38.859 Z-1.193
X37.561 Y38.641 Z-1.069
X37.692 Y38.417 Z-0.941
X37.791 Y38.273 Z-0.859
X37.899 Y38.135 Z-0.78
X38.017 Y38.002 Z-0.705
X38.145 Y37.877 Z-0.633
X38.281 Y37.759 Z-0.566
X38.426 Y37.648 Z-0.503
X38.579 Y37.547 Z-0.445
X38.74 Y37.454 Z-0.392
X38.892 Y37.379 Z-0.349
X38.926 Y37.362 Z-0.334
X38.957 Y37.347 Z-0.309
X38.98 Y37.336 Z-0.275
X38.994 Y37.329 Z-0.237
X38.999 Y37.326 Z-0.195
X39.006 Y37.329 Z-0.146
X39.027 Y37.338 Z-0.102
X39.06 Y37.351 Z-0.067
X39.101 Y37.368 Z-0.044
X39.146 Y37.386 Z-0.037
X42.592 Y38.788
X42.638 Y38.807 Z-0.044
X42.679 Y38.823 Z-0.067
X42.711 Y38.836 Z-0.102
X42.732 Y38.845 Z-0.146
X42.739 Y38.848 Z-0.195
Z-0.998
X42.736 Y38.842 Z-1.042
X42.728 Y38.826 Z-1.082
X42.715 Y38.8 Z-1.116
X42.699 Y38.767 Z-1.141
X42.673 Y38.716 Z-1.112
X42.544 Y38.489 Z-0.982
X42.393 Y38.272 Z-0.859
X42.281 Y38.134 Z-0.78
X42.16 Y38.002 Z-0.705
X42.03 Y37.877 Z-0.633
X41.891 Y37.759 Z-0.566
X41.744 Y37.648 Z-0.503
X41.589 Y37.547 Z-0.445
X41.426 Y37.454 Z-0.392
X41.273 Y37.38 Z-0.349
X41.238 Y37.362 Z-0.334
X41.208 Y37.348 Z-0.309
X41.185 Y37.336 Z-0.276
X41.17 Y37.329 Z-0.237
X41.165 Y37.327 Z-0.195
X41.171 Y37.332 Z-0.146
X41.187 Y37.347 Z-0.102
X41.213 Y37.371 Z-0.067
X41.246 Y37.401 Z-0.044
X41.282 Y37.434 Z-0.037
X42.546 Y38.582
X42.582 Y38.615 Z-0.044
X42.615 Y38.645 Z-0.067
X42.641 Y38.669 Z-0.102
X42.658 Y38.684 Z-0.146
X42.663 Y38.689 Z-0.195
Z-1
X42.666 Y38.694 Z-1.043
X42.673 Y38.71 Z-1.082
X42.684 Y38.735 Z-1.116
X42.699 Y38.767 Z-1.141
X42.77 Y38.924 Z-1.061
X42.833 Y39.088 Z-0.983
X42.887 Y39.258 Z-0.908
X42.931 Y39.431 Z-0.837
X42.964 Y39.609 Z-0.77
X42.987 Y39.789 Z-0.707
X42.999 Y39.973 Z-0.648
X43 Y40.158 Z-0.595
X42.989 Y40.345 Z-0.547
X42.967 Y40.531 Z-0.505
X42.932 Y40.718 Z-0.469
X42.886 Y40.903 Z-0.439
X42.827 Y41.085 Z-0.416
X42.757 Y41.265 Z-0.4
X42.675 Y41.44 Z-0.39
X42.581 Y41.613 Z-0.387
X42.557 Y41.656 Z-0.379
X42.536 Y41.694 Z-0.356
X42.52 Y41.724 Z-0.321
X42.509 Y41.744 Z-0.277
X42.505 Y41.75 Z-0.229
X42.498 Y41.754 Z-0.18
X42.479 Y41.765 Z-0.135
X42.448 Y41.781 Z-0.1
X42.408 Y41.802 Z-0.078
X42.365 Y41.825 Z-0.07
X40.053 Y43.052
X40.01 Y43.075 Z-0.078
X39.971 Y43.096 Z-0.1
X39.94 Y43.112 Z-0.135
X39.92 Y43.123 Z-0.18
X39.913 Y43.127 Z-0.229
Z-1.09
X39.919 Y43.126 Z-1.133
X39.936 Y43.125 Z-1.173
X39.964 Y43.124 Z-1.207
X40 Y43.123 Z-1.232
X40.132 Y43.116 Z-1.168
X40.395 Y43.087 Z-1.047
X40.658 Y43.035 Z-0.932
X40.832 Y42.987 Z-0.859
X41.004 Y42.929 Z-0.791
X41.174 Y42.86 Z-0.727
X41.341 Y42.781 Z-0.667
X41.504 Y42.69 Z-0.612
X41.663 Y42.59 Z-0.562
X41.816 Y42.479 Z-0.518
X41.963 Y42.358 Z-0.48
X42.103 Y42.227 Z-0.448
X42.235 Y42.088 Z-0.423
X42.358 Y41.939 Z-0.404
X42.475 Y41.78 Z-0.392
X42.581 Y41.613 Z-0.387
X42.606 Y41.572 Z-0.379
X42.63 Y41.536 Z-0.356
X42.648 Y41.507 Z-0.321
X42.66 Y41.489 Z-0.277
X42.664 Y41.482 Z-0.229
X42.657 Y41.486 Z-0.18
X42.638 Y41.498 Z-0.135
X42.608 Y41.517 Z-0.1
X42.571 Y41.541 Z-0.078
X42.53 Y41.567 Z-0.07
X40.222 Y43.038
X40.181 Y43.065 Z-0.078
X40.143 Y43.089 Z-0.1
X40.114 Y43.107 Z-0.135
X40.095 Y43.12 Z-0.18
X40.088 Y43.124 Z-0.229
Z-1.09
X40.082 Z-1.133
X40.064 Y43.123 Z-1.173
X40.036 Z-1.207
X40 Z-1.232
X39.758 Y43.119 Z-1.113
X39.497 Y43.095 Z-0.991
X39.235 Y43.048 Z-0.875
X38.977 Y42.978 Z-0.767
X38.806 Y42.919 Z-0.7
X38.638 Y42.849 Z-0.637
X38.472 Y42.77 Z-0.578
X38.311 Y42.68 Z-0.523
X38.153 Y42.579 Z-0.474
X38.001 Y42.47 Z-0.43
X37.855 Y42.35 Z-0.392
X37.668 Y42.175 Z-0.35
X37.665 Y42.171 Z-0.349
X37.635 Y42.14 Z-0.337
X37.608 Y42.113 Z-0.312
X37.587 Y42.092 Z-0.278
X37.574 Y42.079 Z-0.237
X37.569 Y42.074 Z-0.192
X37.568 Y42.066 Z-0.143
X37.565 Y42.044 Z-0.099
X37.56 Y42.009 Z-0.064
X37.554 Y41.965 Z-0.041
X37.547 Y41.917 Z-0.033
X37.079 Y38.685
X37.072 Y38.637 Z-0.041
X37.065 Y38.593 Z-0.064
X37.06 Y38.558 Z-0.099
X37.057 Y38.536 Z-0.143
X37.056 Y38.528 Z-0.192
Z-0.909
X37.054 Y38.533 Z-0.952
X37.047 Y38.549 Z-0.991
X37.037 Y38.574 Z-1.024
X37.024 Y38.607 Z-1.049
X36.95 Y38.792 Z-0.96
X36.867 Y39.048 Z-0.846
X36.806 Y39.312 Z-0.741
X36.777 Y39.493 Z-0.675
X36.758 Y39.676 Z-0.613
X36.75 Y39.862 Z-0.556
X36.752 Y40.049 Z-0.504
X36.765 Y40.237 Z-0.456
X36.789 Y40.425 Z-0.415
X36.824 Y40.612 Z-0.379
X36.87 Y40.795 Z-0.349
X36.88 Y40.836 Z-0.336
X36.889 Y40.873 Z-0.312
X36.896 Y40.901 Z-0.277
X36.901 Y40.919 Z-0.237
X36.902 Y40.925 Z-0.192
X36.903 Y40.917 Z-0.143
Y40.895 Z-0.099
X36.905 Y40.86 Z-0.064
X36.906 Y40.815 Z-0.041
X36.908 Y40.766 Z-0.034
X36.978 Y38.848
X36.98 Y38.799 Z-0.041
X36.982 Y38.755 Z-0.064
X36.983 Y38.72 Z-0.099
X36.984 Y38.697 Z-0.143
Y38.689 Z-0.192
Z-0.905
X36.987 Y38.684 Z-0.95
X36.995 Y38.667 Z-0.991
X37.008 Y38.64 Z-1.025
X37.024 Y38.607 Z-1.049
X37.129 Y38.39 Z-0.926
X37.259 Y38.166 Z-0.798
X37.321 Y38.071 Z-0.744
X37.478 Y37.86 Z-0.623
X37.653 Y37.66 Z-0.509
X37.846 Y37.473 Z-0.402
X37.954 Y37.38 Z-0.349
X37.998 Y37.342 Z-0.321
X38.037 Y37.309 Z-0.282
X38.068 Y37.282 Z-0.233
X38.092 Y37.262 Z-0.177
X38.107 Y37.249 Z-0.116
X38.112 Y37.245 Z-0.052
G0 Z5
X43.217 Y38.674
Z4.618
G1 Z-0.712 F637.54
X43.214 Y38.667 Z-0.783
X43.203 Y38.646 Z-0.85
X43.185 Y38.613 Z-0.91
X43.161 Y38.569 Z-0.96
X43.132 Y38.517 Z-0.998
X43.032 Y38.33 Z-0.892
X42.892 Y38.108 Z-0.765
X42.733 Y37.896 Z-0.644
X42.557 Y37.694 Z-0.529
X42.364 Y37.505 Z-0.421
X42.217 Y37.379 Z-0.349
X42.185 Y37.352 Z-0.326
X42.16 Y37.33 Z-0.291
X42.144 Y37.317 Z-0.248
X42.139 Y37.312 Z-0.2
X42.144 Y37.318 Z-0.151
X42.158 Y37.335 Z-0.107
X42.181 Y37.362 Z-0.072
X42.21 Y37.396 Z-0.049
X42.241 Y37.433 Z-0.042
X42.993 Y38.318
X43.025 Y38.355 Z-0.049
X43.053 Y38.389 Z-0.072
X43.076 Y38.416 Z-0.107
X43.091 Y38.433 Z-0.151
X43.096 Y38.439 Z-0.2
Z-0.857
X43.098 Y38.444 Z-0.9
X43.106 Y38.46 Z-0.94
X43.117 Y38.484 Z-0.973
X43.132 Y38.517 Z-0.998
X43.206 Y38.672 Z-0.917
X43.303 Y38.918 Z-0.799
X43.382 Y39.173 Z-0.687
X43.442 Y39.436 Z-0.583
X43.481 Y39.706 Z-0.486
X43.5 Y39.981 Z-0.399
Y40.153 Z-0.349
Y40.217 Z-0.324
Y40.273 Z-0.285
X43.501 Y40.319 Z-0.235
Y40.354 Z-0.177
Y40.376 Z-0.112
Y40.383 Z-0.044
G0 Z5
X39.827 Y43.633
Z4.572
G1 Z-0.806 F637.54
X39.834 Z-0.875
X39.857 Y43.631 Z-0.941
X39.893 Y43.629 Z-1.001
X39.941 Y43.626 Z-1.051
X40 Y43.623 Z-1.089
X40.281 Y43.605 Z-0.955
X40.544 Y43.569 Z-0.835
X40.807 Y43.513 Z-0.722
X41.067 Y43.437 Z-0.615
X41.323 Y43.34 Z-0.516
X41.574 Y43.223 Z-0.425
X41.802 Y43.094 Z-0.349
X41.835 Y43.076 Z-0.333
X41.863 Y43.06 Z-0.308
X41.884 Y43.048 Z-0.275
X41.898 Y43.041 Z-0.237
X41.902 Y43.038 Z-0.197
X41.895 Y43.04 Z-0.148
X41.873 Y43.047 Z-0.104
X41.84 Y43.058 Z-0.068
X41.798 Y43.072 Z-0.046
X41.751 Y43.087 Z-0.038
X40.24 Y43.575
X40.193 Y43.59 Z-0.046
X40.151 Y43.603 Z-0.068
X40.117 Y43.614 Z-0.104
X40.096 Y43.621 Z-0.148
X40.089 Y43.624 Z-0.197
Z-0.946
X40.082 Y43.623 Z-0.99
X40.065 Z-1.03
X40.036 Z-1.064
X40 Z-1.089
X39.757 Y43.62 Z-0.97
X39.496 Y43.598 Z-0.847
X39.235 Y43.558 Z-0.729
X38.975 Y43.498 Z-0.618
X38.717 Y43.418 Z-0.513
X38.463 Y43.319 Z-0.416
X38.276 Y43.231 Z-0.349
X38.222 Y43.205 Z-0.322
X38.173 Y43.182 Z-0.283
X38.133 Y43.163 Z-0.234
X38.103 Y43.149 Z-0.176
X38.084 Y43.14 Z-0.113
X38.078 Y43.137 Z-0.047
G0 Z5
X36.658 Y38.2
Z4.662
G1 Z-0.625 F637.54
X36.655 Y38.206 Z-0.693
X36.646 Y38.227 Z-0.759
X36.631 Y38.259 Z-0.818
X36.612 Y38.303 Z-0.868
X36.589 Y38.356 Z-0.906
X36.555 Y38.432 Z-0.868
X36.46 Y38.676 Z-0.751
X36.381 Y38.933 Z-0.639
X36.319 Y39.197 Z-0.533
X36.276 Y39.468 Z-0.434
X36.254 Y39.727 Z-0.349
X36.25 Y39.772 Z-0.327
X36.247 Y39.806 Z-0.292
X36.245 Y39.829 Z-0.247
Y39.837 Z-0.198
X36.246 Y39.829 Z-0.149
X36.251 Y39.807 Z-0.105
X36.259 Y39.773 Z-0.07
X36.268 Y39.729 Z-0.047
X36.278 Y39.681 Z-0.04
X36.515 Y38.592
X36.525 Y38.544 Z-0.047
X36.535 Y38.501 Z-0.07
X36.542 Y38.466 Z-0.105
X36.547 Y38.444 Z-0.149
X36.549 Y38.437 Z-0.198
Z-0.763
X36.551 Y38.431 Z-0.807
X36.56 Y38.415 Z-0.848
X36.572 Y38.389 Z-0.882
X36.589 Y38.356 Z-0.906
X36.696 Y38.14 Z-0.783
X36.826 Y37.915 Z-0.655
X36.972 Y37.698 Z-0.531
X37.135 Y37.491 Z-0.413
X37.231 Y37.38 Z-0.35
X37.267 Y37.339 Z-0.32
X37.298 Y37.304 Z-0.28
X37.323 Y37.275 Z-0.232
X37.342 Y37.253 Z-0.178
X37.354 Y37.24 Z-0.119
X37.357 Y37.235 Z-0.058
G0 Z5
X43.65 Y38.424
Z4.683
G1 Z-0.569 F637.54
X43.647 Y38.417 Z-0.64
X43.636 Y38.397 Z-0.707
X43.618 Y38.363 Z-0.767
X43.594 Y38.319 Z-0.817
X43.566 Y38.266 Z-0.855
X43.499 Y38.14 Z-0.783
X43.411 Y37.99 Z-0.698
X43.265 Y37.771 Z-0.572
X43.104 Y37.56 Z-0.452
X42.948 Y37.38 Z-0.349
X42.922 Y37.35 Z-0.325
X42.902 Y37.327 Z-0.291
X42.889 Y37.312 Z-0.249
X42.885 Y37.307 Z-0.204
X42.889 Y37.314 Z-0.155
X42.903 Y37.332 Z-0.11
X42.923 Y37.36 Z-0.075
X42.949 Y37.396 Z-0.053
X42.978 Y37.435 Z-0.045
X43.436 Y38.06
X43.465 Y38.1 Z-0.053
X43.491 Y38.136 Z-0.075
X43.512 Y38.164 Z-0.11
X43.525 Y38.182 Z-0.155
X43.529 Y38.188 Z-0.204
Z-0.714
X43.532 Y38.194 Z-0.757
X43.539 Y38.209 Z-0.797
X43.551 Y38.234 Z-0.83
X43.566 Y38.266 Z-0.855
X43.676 Y38.501 Z-0.734
X43.773 Y38.747 Z-0.616
X43.853 Y39.002 Z-0.503
X43.917 Y39.263 Z-0.397
X43.941 Y39.39 Z-0.349
X43.952 Y39.446 Z-0.321
X43.962 Y39.496 Z-0.282
X43.969 Y39.537 Z-0.233
X43.975 Y39.567 Z-0.177
X43.979 Y39.586 Z-0.116
X43.98 Y39.593 Z-0.052
G0 Z5
X39.825 Y44.128
Z4.643
G1 Z-0.663 F637.54
X39.832 Z-0.732
X39.855 Y44.127 Z-0.798
X39.892 Y44.126 Z-0.858
X39.941 Y44.124 Z-0.908
X39.999 Y44.123 Z-0.946
X40.089 Y44.12 Z-0.904
X40.351 Y44.101 Z-0.779
X40.614 Y44.064 Z-0.66
X40.876 Y44.011 Z-0.545
X41.128 Y43.942 Z-0.44
X41.358 Y43.864 Z-0.349
X41.397 Y43.851 Z-0.326
X41.428 Y43.84 Z-0.291
X41.448 Y43.833 Z-0.248
X41.455 Y43.831 Z-0.201
X41.447 Y43.833 Z-0.152
X41.425 Y43.838 Z-0.108
X41.391 Y43.845 Z-0.072
X41.348 Y43.854 Z-0.05
X41.3 Y43.864 Z-0.042
X40.244 Y44.09
X40.196 Y44.101 Z-0.05
X40.153 Y44.11 Z-0.072
X40.118 Y44.117 Z-0.108
X40.096 Y44.122 Z-0.152
X40.089 Y44.124 Z-0.201
Z-0.804
X40.083 Z-0.847
X40.065 Y44.123 Z-0.888
X40.036 Z-0.922
X39.999 Z-0.946
X39.739 Y44.119 Z-0.819
X39.478 Y44.1 Z-0.695
X39.217 Y44.063 Z-0.576
X38.956 Y44.009 Z-0.463
X38.682 Y43.933 Z-0.349
X38.628 Y43.919 Z-0.32
X38.581 Y43.905 Z-0.281
X38.542 Y43.895 Z-0.232
X38.513 Y43.887 Z-0.177
X38.496 Y43.882 Z-0.117
X38.49 Y43.88 Z-0.054
G0 Z5
X36.225 Y37.948
Z4.721
G1 Z-0.481 F637.54
X36.222 Y37.955 Z-0.55
X36.212 Y37.976 Z-0.615
X36.198 Y38.008 Z-0.675
X36.178 Y38.052 Z-0.724
X36.154 Y38.104 Z-0.763
X36.102 Y38.221 Z-0.704
X36.004 Y38.468 Z-0.585
X35.921 Y38.722 Z-0.471
X35.845 Y39.019 Z-0.35
X35.835 Y39.058 Z-0.326
X35.827 Y39.089 Z-0.291
X35.822 Y39.109 Z-0.249
X35.821 Y39.116 Z-0.202
X35.823 Y39.109 Z-0.153
X35.83 Y39.087 Z-0.109
X35.84 Y39.054 Z-0.074
X35.854 Y39.011 Z-0.051
X35.868 Y38.965 Z-0.043
X36.066 Y38.337
X36.08 Y38.29 Z-0.051
X36.094 Y38.248 Z-0.074
X36.104 Y38.215 Z-0.109
X36.111 Y38.193 Z-0.153
X36.113 Y38.186 Z-0.202
Z-0.619
X36.116 Y38.18 Z-0.663
X36.124 Y38.164 Z-0.704
X36.138 Y38.138 Z-0.738
X36.154 Y38.104 Z-0.763
X36.263 Y37.889 Z-0.64
X36.393 Y37.665 Z-0.512
X36.563 Y37.411 Z-0.367
X36.586 Y37.38 Z-0.35
X36.616 Y37.338 Z-0.319
X36.643 Y37.301 Z-0.28
X36.665 Y37.272 Z-0.233
X36.681 Y37.249 Z-0.179
X36.691 Y37.236 Z-0.121
X36.695 Y37.231 Z-0.061
G0 Z5
X44.085 Y38.173
Z4.738
G1 Z-0.427 F637.54
X44.081 Y38.166 Z-0.497
X44.07 Y38.146 Z-0.564
X44.052 Y38.113 Z-0.624
X44.028 Y38.069 Z-0.675
X43.999 Y38.016 Z-0.712
X43.92 Y37.87 Z-0.629
X43.785 Y37.646 Z-0.502
X43.598 Y37.379 Z-0.349
X43.577 Y37.349 Z-0.325
X43.56 Y37.325 Z-0.291
X43.549 Y37.31 Z-0.25
X43.546 Y37.304 Z-0.205
X43.55 Y37.311 Z-0.156
X43.562 Y37.33 Z-0.112
X43.582 Y37.359 Z-0.077
X43.606 Y37.396 Z-0.054
X43.633 Y37.437 Z-0.047
X43.875 Y37.806
X43.902 Y37.847 Z-0.054
X43.926 Y37.884 Z-0.077
X43.945 Y37.913 Z-0.112
X43.958 Y37.932 Z-0.156
X43.962 Y37.938 Z-0.205
Z-0.571
X43.965 Y37.944 Z-0.614
X43.972 Y37.959 Z-0.654
X43.984 Y37.984 Z-0.688
X43.999 Y38.016 Z-0.712
X44.112 Y38.25 Z-0.59
X44.212 Y38.494 Z-0.471
X44.304 Y38.762 Z-0.349
X44.321 Y38.813 Z-0.32
X44.336 Y38.857 Z-0.28
X44.349 Y38.894 Z-0.232
X44.358 Y38.921 Z-0.178
X44.364 Y38.938 Z-0.119
X44.366 Y38.944 Z-0.058
G0 Z5
X39.873 Y44.653
Z4.698
G1 Z-0.362 F637.54
X39.881 Y44.652 Z-0.432
X39.904 Y44.65 Z-0.498
X39.941 Y44.646 Z-0.558
X39.99 Y44.641 Z-0.608
X40.049 Y44.634 Z-0.647
X40.115 Y44.627 Z-0.67
X40.185 Y44.62 Z-0.679
X40.255 Y44.613 Z-0.672
X40.321 Y44.606 Z-0.65
X40.484 Y44.589 Z-0.575
X40.747 Y44.549 Z-0.456
X40.992 Y44.497 Z-0.349
X41.031 Y44.489 Z-0.325
X41.061 Y44.483 Z-0.291
X41.08 Y44.479 Z-0.249
X41.087 Y44.477 Z-0.203
X41.079 Y44.478 Z-0.154
X41.057 Y44.481 Z-0.11
X41.022 Y44.485 Z-0.075
X40.978 Y44.491 Z-0.052
X40.929 Y44.497 Z-0.045
X40.07 Y44.606
X40.021 Y44.612 Z-0.052
X39.978 Y44.617 Z-0.075
X39.943 Y44.622 Z-0.11
X39.92 Y44.624 Z-0.154
X39.913 Y44.625 Z-0.203
Z-0.662
X39.919 Z-0.705
X39.936 Z-0.745
X39.964 Y44.624 Z-0.779
X40 Y44.623 Z-0.804
X40.146 Y44.618 Z-0.733
X40.321 Y44.606 Z-0.65
X40.358 Y44.603 Z-0.625
X40.387 Y44.601 Z-0.591
X40.405 Y44.6 Z-0.551
X40.412 Z-0.507
X40.404 Z-0.457
X40.382 Y44.602 Z-0.413
X40.346 Y44.604 Z-0.378
X40.302 Y44.608 Z-0.356
X40.253 Y44.611 Z-0.348
X40.247 Y44.612
X40.198 Y44.615 Z-0.356
X40.153 Y44.619 Z-0.378
X40.118 Y44.621 Z-0.413
X40.096 Y44.623 Z-0.457
X40.088 Z-0.507
Z-0.662
X40.082 Z-0.705
X40.064 Z-0.745
X40.036 Z-0.779
X40 Z-0.804
X39.757 Y44.62 Z-0.685
X39.496 Y44.604 Z-0.56
X39.235 Y44.572 Z-0.44
X39.031 Y44.537 Z-0.349
X38.978 Y44.528 Z-0.319
X38.932 Y44.52 Z-0.28
X38.894 Y44.513 Z-0.232
X38.866 Y44.509 Z-0.178
X38.849 Y44.506 Z-0.119
X38.843 Y44.505 Z-0.059
G0 Z5
X35.793 Y37.698
Z4.769
G1 Z-0.338 F637.54
X35.79 Y37.705 Z-0.407
X35.78 Y37.725 Z-0.472
X35.765 Y37.758 Z-0.532
X35.744 Y37.801 Z-0.582
X35.72 Y37.854 Z-0.62
X35.683 Y37.932 Z-0.579
X35.579 Y38.176 Z-0.459
X35.494 Y38.411 Z-0.35
X35.481 Y38.447 Z-0.325
X35.471 Y38.476 Z-0.291
X35.464 Y38.494 Z-0.25
X35.462 Y38.5 Z-0.204
X35.465 Y38.493 Z-0.155
X35.473 Y38.472 Z-0.111
X35.485 Y38.439 Z-0.076
X35.501 Y38.398 Z-0.053
X35.518 Y38.352 Z-0.045
X35.621 Y38.082
X35.639 Y38.036 Z-0.053
X35.655 Y37.995 Z-0.076
X35.667 Y37.962 Z-0.111
X35.675 Y37.941 Z-0.155
X35.678 Y37.934 Z-0.204
Z-0.477
X35.681 Y37.928 Z-0.521
X35.689 Y37.912 Z-0.561
X35.703 Y37.887 Z-0.595
X35.72 Y37.854 Z-0.62
X35.872 Y37.564 Z-0.454
X35.981 Y37.38 Z-0.35
X36.012 Y37.329 Z-0.312
X36.038 Y37.286 Z-0.261
X36.057 Y37.254 Z-0.201
X36.069 Y37.234 Z-0.135
X36.073 Y37.227 Z-0.064
G0 Z5
X44.518 Y37.923
Z4.783
G1 Z-0.284 F637.54
X44.514 Y37.916 Z-0.355
X44.503 Y37.896 Z-0.421
X44.485 Y37.863 Z-0.482
X44.461 Y37.819 Z-0.532
X44.433 Y37.766 Z-0.57
X44.38 Y37.668 Z-0.514
X44.208 Y37.379 Z-0.349
X44.189 Y37.348 Z-0.324
X44.174 Y37.324 Z-0.291
X44.165 Y37.308 Z-0.25
X44.162 Y37.303 Z-0.207
X44.166 Y37.31 Z-0.158
X44.178 Y37.329 Z-0.113
X44.196 Y37.359 Z-0.078
X44.219 Y37.397 Z-0.056
X44.244 Y37.439 Z-0.048
X44.313 Y37.552
X44.338 Y37.594 Z-0.056
X44.361 Y37.632 Z-0.078
X44.379 Y37.662 Z-0.113
X44.391 Y37.682 Z-0.158
X44.395 Y37.688 Z-0.207
Z-0.428
X44.397 Y37.694 Z-0.471
X44.405 Y37.709 Z-0.511
X44.417 Y37.734 Z-0.545
X44.433 Y37.766 Z-0.57
X44.547 Y37.999 Z-0.447
X44.631 Y38.193 Z-0.35
X44.652 Y38.241 Z-0.32
X44.67 Y38.283 Z-0.28
X44.685 Y38.317 Z-0.233
X44.696 Y38.342 Z-0.179
X44.703 Y38.358 Z-0.121
X44.705 Y38.363 Z-0.061
G0 Z5
X39.825 Y45.128
Z4.755
G1 Z-0.378 F637.54
X39.833 Z-0.447
X39.856 Y45.127 Z-0.513
X39.892 Y45.126 Z-0.573
X39.941 Y45.124 Z-0.623
X40 Y45.123 Z-0.661
X40.153 Y45.118 Z-0.587
X40.328 Y45.107 Z-0.504
X40.662 Y45.069 Z-0.35
X40.699 Y45.065 Z-0.325
X40.729 Y45.062 Z-0.291
X40.747 Y45.06 Z-0.25
X40.754 Y45.059 Z-0.205
X40.746 Y45.06 Z-0.156
X40.723 Y45.062 Z-0.112
X40.688 Y45.065 Z-0.077
X40.644 Y45.069 Z-0.054
X40.596 Y45.074 Z-0.047
X40.246 Y45.108
X40.197 Y45.113 Z-0.054
X40.153 Y45.117 Z-0.077
X40.118 Y45.12 Z-0.112
X40.096 Y45.122 Z-0.156
X40.088 Y45.123 Z-0.205
Z-0.519
X40.082 Z-0.563
X40.064 Z-0.603
X40.036 Z-0.636
X40 Z-0.661
X39.757 Y45.121 Z-0.542
X39.409 Y45.098 Z-0.376
X39.351 Y45.091 Z-0.349
X39.299 Y45.086 Z-0.319
X39.254 Y45.081 Z-0.28
X39.217 Y45.077 Z-0.232
X39.19 Y45.074 Z-0.179
X39.173 Y45.073 Z-0.121
X39.167 Y45.072 Z-0.061
G0 Z5
X35.357 Y37.447
Z4.807
G1 Z-0.195 F637.54
X35.354 Y37.454 Z-0.264
X35.345 Y37.474 Z-0.329
X35.33 Y37.507 Z-0.388
X35.31 Y37.55 Z-0.438
X35.286 Y37.603 Z-0.477
X35.172 Y37.853 Z-0.349
X35.15 Y37.9 Z-0.319
X35.131 Y37.941 Z-0.28
X35.116 Y37.975 Z-0.232
X35.104 Y38 Z-0.179
X35.097 Y38.015 Z-0.121
X35.095 Y38.02 Z-0.061
G0 Z5
X35.202 Y37.764
Z4.807
G1 Z-0.19 F637.54
X35.205 Y37.759 Z-0.249
X35.212 Y37.745 Z-0.306
X35.225 Y37.721 Z-0.36
X35.242 Y37.688 Z-0.407
X35.262 Y37.648 Z-0.446
X35.286 Y37.603 Z-0.477
X35.402 Y37.379 Z-0.349
X35.429 Y37.327 Z-0.311
X35.451 Y37.284 Z-0.261
X35.468 Y37.252 Z-0.201
X35.479 Y37.232 Z-0.135
X35.482 Y37.225 Z-0.066
G0 Z5
X44.952 Y37.672
Z4.818
G1 Z-0.142 F637.54
X44.948 Y37.665 Z-0.212
X44.937 Y37.645 Z-0.279
X44.919 Y37.612 Z-0.339
X44.895 Y37.568 Z-0.389
X44.866 Y37.516 Z-0.427
X44.792 Y37.38 Z-0.349
X44.763 Y37.328 Z-0.311
X44.74 Y37.285 Z-0.261
X44.722 Y37.253 Z-0.201
X44.711 Y37.232 Z-0.135
X44.708 Y37.226 Z-0.065
G0 Z5
X44.787 Y37.361
Z4.818
G1 Z-0.144 F637.54
X44.791 Y37.368 Z-0.213
X44.801 Y37.388 Z-0.279
X44.818 Y37.42 Z-0.339
X44.84 Y37.464 Z-0.389
X44.866 Y37.516 Z-0.427
X44.94 Y37.66 Z-0.349
X44.963 Y37.706 Z-0.319
X44.983 Y37.745 Z-0.279
X45 Y37.778 Z-0.232
X45.012 Y37.801 Z-0.179
X45.019 Y37.816 Z-0.122
X45.022 Y37.821 Z-0.063
G0 Z5
X39.826 Y45.63
Z4.797
G1 Z-0.235 F637.54
X39.833 Z-0.305
X39.856 Y45.629 Z-0.371
X39.893 Y45.627 Z-0.43
X39.941 Y45.625 Z-0.48
X40 Y45.623 Z-0.518
X40.351 Y45.607 Z-0.35
X40.388 Y45.605 Z-0.325
X40.417 Y45.604 Z-0.291
X40.435 Y45.603 Z-0.251
X40.441 Y45.602 Z-0.207
X40.433 Y45.603 Z-0.157
X40.411 Y45.604 Z-0.113
X40.376 Y45.606 Z-0.078
X40.332 Y45.609 Z-0.056
X40.283 Y45.612 Z-0.048
X40.247 Y45.614
X40.198 Y45.617 Z-0.056
X40.154 Y45.619 Z-0.078
X40.119 Y45.621 Z-0.113
X40.097 Y45.623 Z-0.157
X40.089 Z-0.207
Z-0.376
X40.083 Z-0.419
X40.065 Z-0.46
X40.036 Z-0.494
X40 Z-0.518
X39.757 Y45.621 Z-0.399
X39.654 Y45.617 Z-0.349
X39.617 Y45.615 Z-0.325
X39.588 Y45.614 Z-0.291
X39.57 Z-0.25
X39.564 Y45.613 Z-0.206
X39.569 Y45.62 Z-0.157
X39.581 Y45.638 Z-0.113
X39.601 Y45.667 Z-0.078
X39.626 Y45.704 Z-0.055
X39.654 Y45.745 Z-0.048
X39.823 Y45.993
X39.85 Y46.033 Z-0.055
X39.875 Y46.07 Z-0.078
X39.895 Y46.099 Z-0.113
X39.908 Y46.118 Z-0.157
X39.912 Y46.124 Z-0.206
Z-0.234
X39.918 Z-0.277
X39.936 Z-0.317
X39.964 Y46.123 Z-0.351
X40 Z-0.376
X40.054 Y46.122 Z-0.349
X40.114 Y46.121 Z-0.311
X40.164 Y46.12 Z-0.261
X40.202 Y46.119 Z-0.201
X40.225 Z-0.134
X40.233 Y46.118 Z-0.064
G0 Z5
X40.178 Y46.121
Z4.828
G1 Z-0.091 F637.54
X40.17 Z-0.161
X40.147 Z-0.228
X40.109 Y46.122 Z-0.288
X40.06 Z-0.338
X40 Y46.123 Z-0.376
X39.946 Z-0.349
X39.887 Z-0.311
X39.838 Y46.124 Z-0.261
X39.801 Z-0.201
X39.778 Z-0.135
X39.77 Z-0.065
G0 Z15

(Morphed Spiral1 8)
X61.26 Y67.069
Z15
Z4.825
G1 Z0.142 F637.54
X61.254 Y67.073 Z0.072
X61.235 Y67.088 Z0.005
X61.204 Y67.11 Z-0.055
X61.164 Y67.14 Z-0.106
X61.116 Y67.176 Z-0.144
X61.062 Y67.216 Z-0.167
X61.005 Y67.258 Z-0.175
X60.088 Y67.941
X59.148 Y68.593
X58.187 Y69.214
X57.206 Y69.802
X56.206 Y70.358
X55.188 Y70.88
X54.153 Y71.367
X53.103 Y71.821
X52.038 Y72.238
X50.96 Y72.621
X49.87 Y72.967
X48.768 Y73.277
X47.658 Y73.55
X46.538 Y73.786
X45.412 Y73.985
X44.279 Y74.146
X43.142 Y74.269
X42.001 Y74.355
X40.858 Y74.402
X39.714 Y74.412
X38.57 Y74.383
X37.428 Y74.317
X36.289 Y74.212
X35.154 Y74.07
X34.024 Y73.89
X32.901 Y73.673
X31.786 Y73.418
X30.68 Y73.127
X29.584 Y72.798
X28.499 Y72.434
X27.428 Y72.034
X26.37 Y71.598
X25.327 Y71.128
X24.301 Y70.623
X23.291 Y70.084
X22.301 Y69.512
X21.329 Y68.908
X20.379 Y68.271
X19.45 Y67.603
X18.544 Y66.905
X17.661 Y66.177
X16.804 Y65.42
X15.972 Y64.635
X15.166 Y63.823
X14.388 Y62.984
X13.638 Y62.12
X12.918 Y61.232
X12.227 Y60.32
X11.567 Y59.385
X10.938 Y58.43
X10.342 Y57.454
X9.778 Y56.458
X9.248 Y55.444
X8.751 Y54.414
X8.271 Y53.322
X7.846 Y52.26
X7.471 Y51.231
X7.116 Y50.143
X6.797 Y49.045
X6.515 Y47.936
X6.27 Y46.819
X6.062 Y45.694
X5.891 Y44.563
X5.758 Y43.426
X5.663 Y42.286
X5.605 Y41.095
X5.587 Y40
X5.606 Y38.856
X5.663 Y37.714
X5.758 Y36.574
X5.891 Y35.437
X6.062 Y34.306
X6.27 Y33.181
X6.515 Y32.064
X6.797 Y30.955
X7.116 Y29.857
X7.471 Y28.769
X7.863 Y27.694
X8.289 Y26.633
X8.772 Y25.542
X9.248 Y24.556
X9.778 Y23.542
X10.342 Y22.546
X10.938 Y21.57
X11.567 Y20.615
X12.227 Y19.68
X12.918 Y18.768
X13.638 Y17.88
X14.388 Y17.016
X15.166 Y16.177
X15.972 Y15.365
X16.804 Y14.58
X17.661 Y13.823
X18.583 Y13.065
X19.45 Y12.397
X20.425 Y11.698
X21.329 Y11.092
X22.301 Y10.488
X23.291 Y9.916
X24.301 Y9.377
X25.327 Y8.872
X26.37 Y8.402
X27.428 Y7.966
X28.546 Y7.55
X29.584 Y7.202
X30.68 Y6.873
X31.786 Y6.582
X32.901 Y6.327
X34.024 Y6.11
X35.154 Y5.93
X36.289 Y5.788
X37.428 Y5.683
X38.57 Y5.617
X39.714 Y5.588
X40.858 Y5.598
X42.001 Y5.645
X43.142 Y5.731
X44.279 Y5.854
X45.412 Y6.015
X46.538 Y6.214
X47.658 Y6.45
X48.768 Y6.723
X49.87 Y7.033
X51.006 Y7.395
X51.555 Y7.59
X51.567 Y7.594
X51.58 Y7.598
X51.775 Y7.668
X52.084 Y7.779
X52.435 Y7.917
X52.447 Y7.922
X52.46 Y7.926
X52.636 Y7.996
X53.193 Y8.218
X54.153 Y8.633
X55.232 Y9.143
X56.206 Y9.642
X57.227 Y10.21
X58.079 Y10.721
X58.097 Y10.73
X58.12 Y10.743
X58.229 Y10.813
X59.016 Y11.321
X59.037 Y11.332
X59.062 Y11.347
X59.15 Y11.408
X59.493 Y11.645
X59.629 Y11.74
X60.088 Y12.059
X60.66 Y12.485
X60.675 Y12.495
X60.692 Y12.506
X60.799 Y12.588
X61.158 Y12.864
X61.9 Y13.455
X62.194 Y13.706
X62.203 Y13.713
X62.213 Y13.721
X62.346 Y13.836
X62.843 Y14.264
X62.891 Y14.308
X63.011 Y14.417
X63.641 Y14.993
X63.644 Y14.997
X63.652 Y15.004
X63.835 Y15.183
X64.477 Y15.812
X65.021 Y16.379
X65.038 Y16.395
X65.059 Y16.414
X65.144 Y16.508
X65.585 Y16.993
X65.61 Y17.021
X65.647 Y17.051
X65.686 Y17.085
X65.967 Y17.418
X66.62 Y18.195
X66.637 Y18.212
X66.657 Y18.234
X66.873 Y18.509
X67.037 Y18.718
X67.192 Y18.915
X67.432 Y19.221
X67.762 Y19.673
X67.965 Y19.951
X68.008 Y20.009
X68.024 Y20.028
X68.043 Y20.051
X68.232 Y20.328
X68.464 Y20.669
X68.574 Y20.83
X68.682 Y20.988
X68.694 Y21.004
X68.71 Y21.024
X68.808 Y21.179
X69.364 Y22.056
X69.944 Y23.042
X70.221 Y23.551
X70.252 Y23.59
X70.284 Y23.634
X70.527 Y24.117
X71.005 Y25.069
X71.033 Y25.129
X71.107 Y25.29
X71.274 Y25.653
X71.343 Y25.802
X71.422 Y25.972
X71.433 Y25.992
X71.446 Y26.017
X71.488 Y26.117
X71.928 Y27.162
X71.998 Y27.343
X72.012 Y27.372
X72.027 Y27.402
X72.316 Y28.174
X72.344 Y28.248
X72.361 Y28.294 Z-0.167
X72.376 Y28.336 Z-0.145
X72.389 Y28.368 Z-0.11
X72.396 Y28.39 Z-0.065
X72.399 Y28.397 Z-0.016
X72.396 Y28.39 Z0.018
X72.389 Y28.369 Z0.046
X72.378 Y28.339 Z0.061
X72.365 Y28.306
X72.354 Y28.277 Z0.046
X72.347 Y28.256 Z0.018
X72.344 Y28.249 Z-0.016
X72.346 Y28.256 Z-0.065
X72.354 Y28.277 Z-0.11
X72.365 Y28.311 Z-0.145
X72.38 Y28.352 Z-0.167
X72.396 Y28.399 Z-0.175
X72.497 Y28.693
X72.507 Y28.716
X72.518 Y28.741
X72.612 Y29.026
X72.768 Y29.498
X72.829 Y29.696
X72.856 Y29.747
X72.884 Y29.803
X73.051 Y30.417
X73.099 Y30.594
X73.151 Y30.784
X73.171 Y30.856
X73.25 Y31.148
X73.28 Y31.256
X73.292 Y31.286
X73.305 Y31.323
X73.369 Y31.596
X73.622 Y32.669
X73.633 Y32.725
X73.637 Y32.739
X73.672 Y32.917
X73.847 Y33.791
X73.923 Y34.242
X73.933 Y34.278
X73.945 Y34.318
X74.001 Y34.707
X74.076 Y35.228
X74.15 Y35.778
X74.156 Y35.804
X74.162 Y35.836
X74.176 Y35.971
X74.294 Y37.143
X74.299 Y37.221
X74.327 Y37.638
X74.345 Y37.911
X74.353 Y37.95
X74.36 Y37.994
X74.37 Y38.298
X74.38 Y38.6
X74.394 Y38.996
X74.399 Y39.167
X74.406 Y39.209
X74.424 Y39.247
X74.443 Y39.291
X74.449 Y39.338
X74.398 Y40.874
X74.388 Y41.182
X74.39 Y41.215
X74.392 Y41.251
X74.376 Y41.543
X74.345 Y42.088
X74.333 Y42.265
X74.334 Y42.297
X74.335 Y42.332
X74.307 Y42.655
X74.264 Y43.154
X74.174 Y44.038
X74.169 Y44.087 Z-0.167
X74.165 Y44.131 Z-0.145
X74.161 Y44.166 Z-0.11
X74.159 Y44.188 Z-0.065
X74.158 Y44.196 Z-0.016
X74.157 Y44.204 Z0.027
X74.154 Y44.225 Z0.064
X74.149 Y44.258 Z0.092
X74.143 Y44.298 Z0.107
X74.136 Y44.341
X74.13 Y44.382 Z0.092
X74.125 Y44.415 Z0.064
X74.121 Y44.436 Z0.027
X74.12 Y44.444 Z-0.016
X74.119 Y44.451 Z-0.065
X74.116 Y44.474 Z-0.11
X74.111 Y44.508 Z-0.145
X74.106 Y44.552 Z-0.167
X74.099 Y44.601 Z-0.175
X74.067 Y44.837
X74.066 Y44.869
X74.065 Y44.905
X74.032 Y45.101
X73.969 Y45.483
X73.968 Y45.495
X73.966 Y45.508
X73.935 Y45.688
X73.817 Y46.365
X73.601 Y47.426
X73.367 Y48.414
X73.364 Y48.43
X73.36 Y48.45
X73.269 Y48.785
X73.228 Y48.935
X73.163 Y49.173
X73.112 Y49.361
X73.108 Y49.38
X73.103 Y49.4
X73.063 Y49.54
X73.034 Y49.641
X73.02 Y49.688 Z-0.167
X73.008 Y49.731 Z-0.145
X72.998 Y49.765 Z-0.11
X72.992 Y49.786 Z-0.065
X72.99 Y49.794 Z-0.016
X72.991 Y49.791 Z-0.001
X72.993 Y49.785 Z0.013
X72.996 Y49.776 Z0.038
X72.994 Y49.781 Z0.065
X72.988 Y49.798 Z0.085
X72.979 Y49.823 Z0.092
X72.97 Y49.847 Z0.085
X72.964 Y49.865 Z0.065
X72.962 Y49.87 Z0.038
X72.966 Y49.861 Z0.013
X72.968 Y49.854 Z-0.001
X72.969 Y49.852 Z-0.016
X72.966 Y49.86 Z-0.065
X72.96 Y49.881 Z-0.11
X72.949 Y49.915 Z-0.145
X72.936 Y49.957 Z-0.167
X72.922 Y50.004 Z-0.175
X72.871 Y50.169
X72.866 Y50.191
X72.86 Y50.214
X72.796 Y50.413
X72.639 Y50.896
X72.456 Y51.427
X72.451 Y51.445
X72.445 Y51.466
X72.4 Y51.589
X72.268 Y51.952
X72.097 Y52.397
X72.09 Y52.423
X72.081 Y52.453
X71.984 Y52.692
X71.853 Y53.018
X71.484 Y53.892
X71.395 Y54.085
X71.284 Y54.326
X71.208 Y54.492
X71.199 Y54.513
X71.19 Y54.537
X71.107 Y54.71
X70.887 Y55.167
X70.471 Y55.991
X70.386 Y56.146
X70.369 Y56.198
X70.349 Y56.254
X70 Y56.856
X69.668 Y57.427
X69.312 Y58.026
X68.752 Y58.91
X68.107 Y59.855
X67.832 Y60.232
X67.825 Y60.241
X67.819 Y60.251
X67.731 Y60.369
X67.371 Y60.855
X66.726 Y61.679
X65.99 Y62.555
X65.491 Y63.112
X65.48 Y63.125
X65.468 Y63.14
X65.355 Y63.264
X65.159 Y63.477
X64.434 Y64.232
X63.615 Y65.031
X62.77 Y65.802
X61.9 Y66.545
X61.138 Y67.152
X61.097 Y67.202
X61.079 Y67.264
X61.087 Y67.329
X61.095 Y67.4
X61.07 Y67.467
X61.019 Y67.517
X57.806 Y69.443
X57.197 Y69.808
X56.33 Y70.292
X55.533 Y70.709
X55.009 Y70.971
X54.314 Y71.297
X53.332 Y71.729
X52.52 Y72.063
X51.912 Y72.298
X50.941 Y72.642
X50.195 Y72.88
X49.165 Y73.182
X48.128 Y73.458
X47.538 Y73.599
X46.499 Y73.819
X45.357 Y74.021
X44.704 Y74.115
X43.736 Y74.234
X42.765 Y74.327
X41.792 Y74.394
X40.817 Y74.435
X40.143 Y74.449
X39.28 Y74.443
X38.344 Y74.414
X37.414 Y74.358
X36.642 Y74.292
X35.866 Y74.209
X35.009 Y74.097
X34.05 Y73.945
X33.169 Y73.781
X32.596 Y73.661
X31.844 Y73.488
X31.057 Y73.289
X30.273 Y73.07
X29.37 Y72.791
X28.446 Y72.477
X27.531 Y72.139
X26.625 Y71.777
X25.729 Y71.389
X25.021 Y71.06
X24.245 Y70.676
X23.519 Y70.292
X22.669 Y69.814
X21.832 Y69.312
X21.01 Y68.788
X20.202 Y68.241
X19.409 Y67.673
X18.632 Y67.083
X17.873 Y66.472
X17.412 Y66.083
X16.652 Y65.409
X15.948 Y64.741
X15.219 Y64.019
X14.838 Y63.619
X14.225 Y62.955
X13.527 Y62.15
X13.098 Y61.624
X12.498 Y60.855
X11.919 Y60.07
X11.362 Y59.269
X10.826 Y58.454
X10.313 Y57.625
X9.889 Y56.9
X9.513 Y56.216
X9.087 Y55.392
X8.763 Y54.727
X8.436 Y54.017
X8.11 Y53.263
X7.749 Y52.365
X7.476 Y51.631
X7.25 Y50.987
X6.998 Y50.213
X6.662 Y49.08
X6.371 Y47.928
X6.17 Y47.022
X5.985 Y46.064
X5.826 Y45.102
X5.693 Y44.136
X5.586 Y43.166
X5.513 Y42.292
X5.469 Y41.515
X5.441 Y40.7
X5.432 Y39.761
X5.454 Y38.793
X5.501 Y37.819
X5.575 Y36.846
X5.674 Y35.875
X5.799 Y34.908
X5.902 Y34.23
X6.107 Y33.117
X6.348 Y32.011
X6.541 Y31.246
X6.825 Y30.211
X6.981 Y29.688
X7.312 Y28.672
X7.676 Y27.666
X7.915 Y27.062
X8.293 Y26.163
X8.695 Y25.274
X9.12 Y24.396
X9.569 Y23.53
X10.054 Y22.652
X10.53 Y21.853
X10.945 Y21.192
X11.408 Y20.492
X11.821 Y19.898
X12.375 Y19.14
X12.928 Y18.423
X13.481 Y17.745
X14.128 Y16.992
X14.696 Y16.368
X15.302 Y15.732
X15.806 Y15.226
X16.514 Y14.554
X17.24 Y13.902
X17.983 Y13.27
X18.743 Y12.659
X19.519 Y12.068
X20.177 Y11.592
X20.886 Y11.108
X21.459 Y10.736
X22.173 Y10.296
X23.017 Y9.805
X23.873 Y9.338
X24.742 Y8.895
X25.623 Y8.475
X26.514 Y8.08
X27.417 Y7.709
X28.006 Y7.482
X28.453 Y7.317
X29.528 Y6.955
X30.367 Y6.703
X31.456 Y6.401
X31.995 Y6.268
X32.974 Y6.047
X34.026 Y5.843
X34.779 Y5.722
X35.746 Y5.589
X36.715 Y5.482
X37.687 Y5.402
X38.661 Y5.347
X39.636 Y5.319
X40.616 Y5.318
X41.43 Y5.341
X42.329 Y5.387
X43.071 Y5.443
X43.909 Y5.527
X44.828 Y5.642
X45.645 Y5.764
X46.42 Y5.899
X47.154 Y6.044
X47.984 Y6.227
X48.847 Y6.437
X49.992 Y6.761
X50.874 Y7.039
X51.797 Y7.357
X52.71 Y7.7
X53.613 Y8.068
X54.507 Y8.459
X55.32 Y8.842
X56.013 Y9.191
X56.617 Y9.511
X57.385 Y9.939
X58.151 Y10.396
X58.975 Y10.918
X59.786 Y11.461
X60.581 Y12.026
X61.361 Y12.611
X61.995 Y13.11
X62.79 Y13.779
X63.253 Y14.189
X63.923 Y14.803
X64.557 Y15.424
X65.288 Y16.168
X65.657 Y16.564
X66.337 Y17.326
X67.027 Y18.149
X67.594 Y18.873
X68.177 Y19.656
X68.738 Y20.453
X69.279 Y21.265
X69.748 Y22.012
X70.275 Y22.908
X70.728 Y23.734
X71.03 Y24.316
X71.331 Y24.922
X71.726 Y25.767
X72.074 Y26.566
X72.405 Y27.379
X72.684 Y28.114
X72.917 Y28.774
X73.163 Y29.514
X73.437 Y30.418
X73.655 Y31.204
X73.867 Y32.057
X74.076 Y33.009
X74.26 Y33.967
X74.418 Y34.93
X74.55 Y35.896
X74.643 Y36.73
X74.702 Y37.41
X74.757 Y38.256
X74.789 Y39.04
X74.803 Y39.722
X74.797 Y40.643
X74.766 Y41.618
X74.708 Y42.591
X74.624 Y43.563
X74.514 Y44.533
X74.378 Y45.499
X74.25 Y46.273
X74.029 Y47.391
X73.853 Y48.152
X73.563 Y49.286
X73.415 Y49.818
X73.128 Y50.755
X72.781 Y51.775
X72.553 Y52.391
X72.193 Y53.297
X71.808 Y54.194
X71.4 Y55.08
X70.967 Y55.954
X70.512 Y56.817
X70.033 Y57.666
X69.561 Y58.45
X69.106 Y59.164
X68.633 Y59.866
X68.164 Y60.527
X67.674 Y61.187
X67.131 Y61.882
X66.75 Y62.347
X66.312 Y62.865
X65.705 Y63.548
X65.065 Y64.23
X64.753 Y64.556
X63.902 Y65.384
X63.217 Y66.011
X62.481 Y66.651
X61.728 Y67.27
X60.958 Y67.87
X60.173 Y68.448
X59.494 Y68.922
X58.855 Y69.343
X58.195 Y69.76
X57.522 Y70.163
X56.808 Y70.567
X55.946 Y71.025
X55.073 Y71.46
X54.189 Y71.871
X53.294 Y72.259
X52.576 Y72.55
X52.068 Y72.744
X51.084 Y73.093
X49.996 Y73.44
X49.24 Y73.655
X48.202 Y73.927
X47.654 Y74.058
X46.694 Y74.262
X45.631 Y74.455
X44.863 Y74.571
X44.203 Y74.661
X43.183 Y74.771
X42.141 Y74.853
X41.098 Y74.903
X40.197 Y74.921
X39.37 Y74.918
X38.521 Y74.895
X37.771 Y74.856
X36.876 Y74.789
X36.121 Y74.715
X35.146 Y74.594
X34.269 Y74.462
X33.486 Y74.324
X32.616 Y74.15
X31.839 Y73.973
X31.099 Y73.788
X30.315 Y73.575
X29.344 Y73.279
X28.419 Y72.969
X27.503 Y72.635
X26.596 Y72.276
X25.698 Y71.893
X25.091 Y71.617
X24.246 Y71.206
X23.377 Y70.755
X22.779 Y70.425
X22.132 Y70.05
X21.3 Y69.54
X20.483 Y69.008
X19.68 Y68.453
X18.892 Y67.878
X18.12 Y67.282
X17.413 Y66.706
X16.623 Y66.019
X16.187 Y65.622
X15.412 Y64.879
X14.746 Y64.211
X14.14 Y63.564
X13.718 Y63.093
X13.105 Y62.382
X12.521 Y61.659
X11.928 Y60.885
X11.355 Y60.095
X10.804 Y59.29
X10.274 Y58.471
X9.807 Y57.705
X9.336 Y56.88
X9.02 Y56.295
X8.71 Y55.696
X8.337 Y54.931
X7.992 Y54.181
X7.694 Y53.493
X7.395 Y52.76
X7.135 Y52.076
X6.819 Y51.189
X6.536 Y50.319
X6.258 Y49.383
X6.181 Y49.104
X5.908 Y48.024
X5.693 Y47.049
X5.51 Y46.091
X5.352 Y45.128
X5.22 Y44.161
X5.113 Y43.192
X5.056 Y42.532
X5.009 Y41.782
X4.973 Y40.896
X4.959 Y40.111
X4.966 Y39.228
X4.992 Y38.418
X5.045 Y37.47
X5.127 Y36.493
X5.252 Y35.396
X5.361 Y34.634
X5.436 Y34.152
X5.644 Y33.023
X5.866 Y31.998
X6.032 Y31.326
X6.311 Y30.29
X6.528 Y29.553
X6.833 Y28.614
X7.199 Y27.592
X7.49 Y26.849
X7.869 Y25.95
X8.271 Y25.061
X8.695 Y24.183
X9.042 Y23.506
X9.431 Y22.793
X9.887 Y22.002
X10.282 Y21.355
X10.653 Y20.774
X11.069 Y20.15
X11.573 Y19.432
X11.989 Y18.867
X12.398 Y18.332
X12.894 Y17.713
X13.421 Y17.085
X13.993 Y16.433
X14.612 Y15.766
X15.075 Y15.288
X15.551 Y14.813
X16.248 Y14.156
X16.975 Y13.506
X17.719 Y12.876
X18.48 Y12.265
X19.256 Y11.674
X19.981 Y11.152
X20.752 Y10.63
X21.342 Y10.25
X21.914 Y9.897
X22.491 Y9.557
X23.344 Y9.083
X24.208 Y8.631
X25.085 Y8.203
X25.972 Y7.799
X26.871 Y7.418
X27.779 Y7.062
X28.386 Y6.84
X29.384 Y6.505
X30.232 Y6.249
X31.171 Y5.988
X31.717 Y5.848
X32.682 Y5.626
X33.653 Y5.432
X34.338 Y5.313
X35.004 Y5.208
X35.962 Y5.084
X36.932 Y4.984
X37.905 Y4.909
X38.805 Y4.864
X39.76 Y4.842
X40.617 Y4.845
X41.399 Y4.866
X42.156 Y4.903
X43.107 Y4.972
X43.998 Y5.061
X44.881 Y5.171
X45.751 Y5.302
X46.635 Y5.458
X47.639 Y5.664
X48.594 Y5.889
X48.973 Y5.981
X50.132 Y6.309
X50.997 Y6.582
X51.919 Y6.9
X52.833 Y7.241
X53.737 Y7.607
X54.632 Y7.997
X55.434 Y8.372
X56.192 Y8.751
X56.978 Y9.169
X57.571 Y9.501
X58.251 Y9.901
X58.832 Y10.259
X59.531 Y10.714
X60.335 Y11.266
X61.125 Y11.838
X61.9 Y12.431
X62.52 Y12.931
X63.323 Y13.615
X64.104 Y14.324
X64.605 Y14.806
X65.363 Y15.565
X65.899 Y16.128
X66.564 Y16.867
X67.269 Y17.699
X67.762 Y18.316
X68.352 Y19.093
X68.921 Y19.886
X69.47 Y20.692
X69.996 Y21.512
X70.383 Y22.154
X70.826 Y22.926
X71.19 Y23.596
X71.582 Y24.361
X71.985 Y25.199
X72.327 Y25.956
X72.636 Y26.685
X73.001 Y27.612
X73.237 Y28.253
X73.531 Y29.112
X73.777 Y29.899
X73.967 Y30.555
X74.164 Y31.28
X74.388 Y32.214
X74.59 Y33.169
X74.767 Y34.128
X74.919 Y35.092
X75.046 Y36.059
X75.141 Y36.974
X75.209 Y37.893
X75.25 Y38.712
X75.272 Y39.465
X75.276 Y40.451
X75.258 Y41.211
X75.224 Y42.02
X75.166 Y42.854
X75.075 Y43.825
X74.96 Y44.794
X74.845 Y45.583
X74.68 Y46.549
X74.47 Y47.586
X74.267 Y48.45
X74.024 Y49.395
X73.87 Y49.946
X73.578 Y50.898
X73.258 Y51.842
X73.019 Y52.494
X72.697 Y53.324
X72.262 Y54.35
X71.819 Y55.311
X71.393 Y56.171
X71.044 Y56.834
X70.61 Y57.616
X70.222 Y58.276
X69.853 Y58.875
X69.45 Y59.5
X68.912 Y60.294
X68.388 Y61.023
X67.84 Y61.746
X67.422 Y62.274
X66.908 Y62.895
X66.377 Y63.506
X65.773 Y64.171
X65.085 Y64.893
X64.225 Y65.729
X63.553 Y66.346
X62.816 Y66.986
X62.064 Y67.606
X61.295 Y68.207
X60.511 Y68.787
X59.764 Y69.31
X59.064 Y69.771
X58.291 Y70.254
X57.638 Y70.642
X56.777 Y71.125
X56.191 Y71.434
X55.317 Y71.869
X54.433 Y72.281
X53.538 Y72.67
X52.602 Y73.048
X51.875 Y73.316
X51.146 Y73.571
X50.136 Y73.892
X49.372 Y74.11
X48.334 Y74.382
X47.76 Y74.518
X46.784 Y74.726
X45.705 Y74.922
X44.851 Y75.05
X43.883 Y75.171
X42.912 Y75.268
X41.98 Y75.336
X41.116 Y75.375
X40.531 Y75.39
X39.763 Y75.395
X38.996 Y75.383
X38.119 Y75.349
X37.257 Y75.295
X36.353 Y75.215
X35.363 Y75.1
X34.686 Y75.006
X33.798 Y74.862
X32.803 Y74.672
X32.115 Y74.522
X31.166 Y74.294
X30.508 Y74.121
X29.845 Y73.929
X29.2 Y73.733
X28.306 Y73.435
X27.319 Y73.075
X26.567 Y72.778
X25.713 Y72.418
X24.964 Y72.079
X24.073 Y71.649
X23.417 Y71.311
X22.681 Y70.913
X21.992 Y70.519
X21.147 Y70.006
X20.571 Y69.639
X19.94 Y69.215
X19.143 Y68.653
X18.36 Y68.072
X17.683 Y67.54
X16.886 Y66.878
X16.089 Y66.175
X15.312 Y65.447
X14.838 Y64.978
X14.339 Y64.469
X13.722 Y63.808
X13.235 Y63.259
X12.743 Y62.686
X12.127 Y61.923
X11.534 Y61.149
X10.961 Y60.359
X10.409 Y59.555
X9.904 Y58.775
X9.502 Y58.118
X9.151 Y57.514
X8.784 Y56.855
X8.379 Y56.088
X7.953 Y55.225
X7.546 Y54.342
X7.217 Y53.578
X6.845 Y52.649
X6.531 Y51.799
X6.248 Y50.967
X6.004 Y50.194
X5.747 Y49.318
X5.45 Y48.144
X5.232 Y47.166
X5.051 Y46.231
X4.906 Y45.362
X4.784 Y44.514
X4.673 Y43.562
X4.606 Y42.829
X4.541 Y41.875
X4.505 Y41.061
X4.487 Y40.168
X4.489 Y39.556
X4.501 Y38.885
X4.545 Y37.908
X4.615 Y36.935
X4.71 Y35.964
X4.831 Y34.996
X4.969 Y34.077
X5.18 Y32.933
X5.405 Y31.892
X5.572 Y31.213
X5.851 Y30.177
X6.047 Y29.508
X6.355 Y28.553
X6.626 Y27.786
X6.896 Y27.06
X7.292 Y26.091
X7.685 Y25.198
X8.093 Y24.328
X8.399 Y23.718
X8.758 Y23.034
X9.134 Y22.358
X9.577 Y21.6
X10.035 Y20.86
X10.564 Y20.052
X11.084 Y19.303
X11.618 Y18.574
X12.032 Y18.032
X12.536 Y17.403
X12.974 Y16.879
X13.605 Y16.157
X14.127 Y15.594
X14.891 Y14.802
X15.307 Y14.391
X15.999 Y13.739
X16.715 Y13.1
X17.448 Y12.481
X18.055 Y11.991
X18.818 Y11.408
X19.475 Y10.93
X20.292 Y10.368
X21.093 Y9.849
X21.791 Y9.419
X22.564 Y8.97
X23.358 Y8.536
X24.226 Y8.091
X25.106 Y7.67
X25.996 Y7.272
X26.897 Y6.897
X27.858 Y6.528
X28.61 Y6.264
X29.33 Y6.026
X30.261 Y5.746
X30.814 Y5.594
X31.602 Y5.389
X32.488 Y5.184
X33.207 Y5.037
X33.954 Y4.897
X34.913 Y4.745
X35.88 Y4.619
X36.85 Y4.517
X37.823 Y4.44
X38.779 Y4.392
X39.554 Y4.372
X40.275 Y4.369
X41.11 Y4.383
X42.079 Y4.425
X43.045 Y4.492
X43.833 Y4.567
X44.649 Y4.663
X45.642 Y4.805
X46.539 Y4.959
X47.419 Y5.134
X48.205 Y5.308
X49.099 Y5.525
X50.259 Y5.854
X51.228 Y6.158
X52.134 Y6.47
X52.951 Y6.776
X53.758 Y7.099
X54.642 Y7.48
X55.391 Y7.827
X56.178 Y8.214
X56.973 Y8.628
X57.757 Y9.063
X58.446 Y9.467
X59.215 Y9.943
X59.78 Y10.309
X60.59 Y10.864
X61.38 Y11.437
X62.155 Y12.029
X62.819 Y12.564
X63.633 Y13.259
X64.425 Y13.978
X64.932 Y14.464
X65.69 Y15.223
X66.178 Y15.734
X66.79 Y16.41
X67.259 Y16.952
X67.82 Y17.627
X68.456 Y18.443
X69.036 Y19.227
X69.601 Y20.034
X70.085 Y20.767
X70.498 Y21.426
X70.946 Y22.178
X71.358 Y22.911
X71.786 Y23.717
X72.219 Y24.587
X72.606 Y25.418
X72.895 Y26.08
X73.152 Y26.699
X73.517 Y27.64
X73.797 Y28.423
X74.071 Y29.249
X74.311 Y30.039
X74.522 Y30.787
X74.733 Y31.611
X74.948 Y32.563
X75.138 Y33.519
X75.304 Y34.481
X75.445 Y35.446
X75.561 Y36.415
X75.636 Y37.219
X75.701 Y38.21
X75.739 Y39.207
X75.75 Y40.105
X75.737 Y41.032
X75.696 Y42.006
X75.629 Y42.979
X75.537 Y43.95
X75.419 Y44.919
X75.275 Y45.884
X75.145 Y46.632
X74.933 Y47.683
X74.712 Y48.634
X74.466 Y49.571
X74.324 Y50.076
X74.057 Y50.95
X73.825 Y51.648
X73.572 Y52.37
X73.227 Y53.266
X72.854 Y54.168
X72.457 Y55.059
X72.038 Y55.94
X71.635 Y56.732
X71.216 Y57.504
X70.778 Y58.265
X70.323 Y59.015
X69.795 Y59.835
X69.247 Y60.639
X68.7 Y61.396
X68.148 Y62.12
X67.598 Y62.806
X67.071 Y63.433
X66.387 Y64.203
X65.692 Y64.942
X65.417 Y65.229
X64.556 Y66.067
X63.888 Y66.679
X63.152 Y67.32
X62.4 Y67.941
X61.633 Y68.543
X60.85 Y69.125
X60.114 Y69.644
X59.602 Y69.986
X59.029 Y70.355
X58.177 Y70.875
X57.524 Y71.251
X56.798 Y71.65
X56 Y72.063
X55.181 Y72.46
X54.292 Y72.862
X53.394 Y73.242
X52.589 Y73.559
X51.485 Y73.955
X50.462 Y74.286
X49.785 Y74.486
X48.749 Y74.765
X48.057 Y74.935
X47.414 Y75.077
X46.683 Y75.227
X45.587 Y75.42
X44.599 Y75.561
X43.67 Y75.672
X42.796 Y75.753
X42.014 Y75.808
X41.134 Y75.848
X40.293 Y75.866
X39.474 Y75.865
X38.497 Y75.84
X37.522 Y75.787
X36.588 Y75.712
X35.715 Y75.62
X34.712 Y75.488
X33.906 Y75.36
X32.995 Y75.192
X32.172 Y75.02
X31.345 Y74.826
X30.497 Y74.608
X29.696 Y74.378
X28.982 Y74.159
X28.073 Y73.855
X27.075 Y73.488
X26.267 Y73.167
X25.461 Y72.824
X24.624 Y72.442
X23.815 Y72.048
X22.927 Y71.587
X22.166 Y71.165
X21.382 Y70.706
X20.617 Y70.231
X19.945 Y69.792
X19.188 Y69.27
X18.322 Y68.636
X17.658 Y68.126
X16.805 Y67.43
X16.053 Y66.777
X15.589 Y66.357
X14.847 Y65.654
X14.067 Y64.868
X13.306 Y64.053
X12.753 Y63.426
X12.28 Y62.868
X11.669 Y62.107
X11.078 Y61.331
X10.537 Y60.582
X10.041 Y59.857
X9.56 Y59.116
X9.049 Y58.28
X8.56 Y57.429
X8.095 Y56.568
X7.656 Y55.697
X7.279 Y54.9
X6.892 Y54.026
X6.508 Y53.087
X6.242 Y52.389
X5.924 Y51.492
X5.612 Y50.532
X5.298 Y49.466
X5.016 Y48.361
X4.792 Y47.372
X4.627 Y46.536
X4.488 Y45.753
X4.344 Y44.794
X4.237 Y43.928
X4.158 Y43.139
X4.087 Y42.225
X4.041 Y41.325
X4.016 Y40.324
X4.017 Y39.422
X4.04 Y38.544
X4.086 Y37.643
X4.154 Y36.744
X4.248 Y35.83
X4.372 Y34.863
X4.503 Y34.003
X4.713 Y32.856
X4.961 Y31.716
X5.205 Y30.746
X5.493 Y29.712
X5.735 Y28.928
X6.024 Y28.059
X6.385 Y27.073
X6.753 Y26.153
X7.168 Y25.189
X7.559 Y24.348
X7.973 Y23.511
X8.387 Y22.728
X8.868 Y21.87
X9.373 Y21.027
X9.843 Y20.286
X10.389 Y19.471
X10.935 Y18.701
X11.544 Y17.89
X12.176 Y17.097 Z-0.176
X12.71 Y16.46
X13.321 Y15.766
X14.048 Y14.99
X14.768 Y14.256
X15.525 Y13.534
X16.147 Y12.97
X16.763 Y12.435
X17.59 Y11.757
X18.455 Y11.088
X19.25 Y10.51
X20.075 Y9.945
X20.843 Y9.447
X21.668 Y8.943
X22.536 Y8.443
X23.418 Y7.969 Z-0.177
X24.313 Y7.519
X25.164 Y7.12
X26.058 Y6.73
X26.962 Y6.362
X27.879 Y6.017
X28.905 Y5.666
X29.893 Y5.361
X30.595 Y5.163
X31.486 Y4.931 Z-0.178
X32.579 Y4.681
X33.735 Y4.455
X34.693 Y4.299
X35.659 Y4.168
X36.629 Y4.061
X37.379 Y3.996
X38.266 Y3.941
X39.133 Y3.908 Z-0.179
X40.031 Y3.895
X41.017 Y3.908
X42.001 Y3.947
X42.885 Y4.005
X43.759 Y4.084
X44.618 Y4.182
X45.625 Y4.324
X46.377 Y4.45
X47.206 Y4.606 Z-0.18
X48.107 Y4.799
X49.192 Y5.061
X50.289 Y5.369
X51.268 Y5.673
X52.073 Y5.947
X52.828 Y6.222
X53.734 Y6.578
X54.542 Y6.919 Z-0.181
X55.26 Y7.243
X56.084 Y7.638
X56.89 Y8.048
X57.687 Y8.481
X58.463 Y8.927
X59.223 Y9.388
X60.065 Y9.931
X60.814 Y10.442
X61.581 Y10.996 Z-0.182
X62.357 Y11.587
X62.89 Y12.011
X63.722 Y12.709
X64.264 Y13.191
X64.889 Y13.765
X65.453 Y14.311
X66.206 Y15.076
X66.589 Y15.482
X67.243 Y16.207
X67.83 Y16.896 Z-0.183
X68.444 Y17.654
X69.037 Y18.428
X69.61 Y19.218
X70.047 Y19.85
X70.529 Y20.584
X70.999 Y21.341
X71.499 Y22.193
X71.975 Y23.059
X72.383 Y23.849 Z-0.184
X72.809 Y24.726
X73.161 Y25.503
X73.483 Y26.258
X73.812 Y27.086
X74.129 Y27.941
X74.431 Y28.824
X74.679 Y29.618
X74.93 Y30.489 Z-0.185
X75.101 Y31.126
X75.332 Y32.087
X75.536 Y33.053
X75.695 Y33.917
X75.835 Y34.786
X75.976 Y35.848
X76.06 Y36.649
X76.118 Y37.33
X76.171 Y38.136
X76.205 Y38.947 Z-0.186
X76.221 Y39.727
X76.218 Y40.636
X76.189 Y41.64
X76.132 Y42.642
X76.05 Y43.606
X75.941 Y44.576
X75.807 Y45.542
X75.715 Y46.12 Z-0.187
X75.61 Y46.714
X75.395 Y47.781
X75.171 Y48.746
X74.923 Y49.69
X74.724 Y50.389
X74.418 Y51.373
X74.083 Y52.345
X73.766 Y53.188
X73.363 Y54.183 Z-0.188
X73.012 Y54.989
X72.591 Y55.886
X72.147 Y56.772
X71.678 Y57.645
X71.228 Y58.434
X70.73 Y59.256
X70.249 Y60.007
X69.805 Y60.665 Z-0.189
X69.355 Y61.302
X68.897 Y61.923
X68.269 Y62.73
X67.961 Y63.109
X67.426 Y63.745
X66.744 Y64.514
X66.091 Y65.209
X65.749 Y65.566
X64.889 Y66.402
X64.198 Y67.04 Z-0.19
X63.562 Y67.597
X62.941 Y68.119
X62.175 Y68.729
X61.474 Y69.259
X60.835 Y69.718
X60.086 Y70.232
X59.406 Y70.675
X58.715 Y71.103
X57.874 Y71.597 Z-0.191
X57.078 Y72.037
X56.186 Y72.499
X55.384 Y72.887
X54.496 Y73.29
X53.597 Y73.669
X52.689 Y74.025
X51.732 Y74.37
X50.949 Y74.628
X50.322 Y74.823 Z-0.192
X49.445 Y75.072
X48.584 Y75.294
X47.975 Y75.439
X47.062 Y75.634
X46.239 Y75.788
X45.276 Y75.944
X44.309 Y76.075
X43.331 Y76.181 Z-0.193
X42.34 Y76.261
X41.444 Y76.309
X40.47 Y76.337
X39.574 Y76.339
X38.681 Y76.319
X37.998 Y76.29
X37.203 Y76.239
X36.433 Y76.173
X35.518 Y76.072
X34.641 Y75.955
X33.631 Y75.792 Z-0.194
X32.708 Y75.618
X32.062 Y75.48
X31.24 Y75.288
X30.378 Y75.065
X29.561 Y74.831
X28.857 Y74.616
X27.931 Y74.306
X26.944 Y73.944 Z-0.195
X26.313 Y73.696
X25.473 Y73.345
X24.55 Y72.929
X23.908 Y72.622
X23.124 Y72.225
X22.406 Y71.841
X21.697 Y71.441
X21.026 Y71.043
X20.254 Y70.56 Z-0.196
X19.495 Y70.059
X18.67 Y69.481
X17.952 Y68.95
X17.183 Y68.35
X16.413 Y67.718
X15.603 Y67.01
X14.841 Y66.304
X14.242 Y65.719
X13.593 Y65.057 Z-0.197
X12.891 Y64.299
X12.254 Y63.571
X11.632 Y62.82
X11.029 Y62.052
X10.447 Y61.269
X9.886 Y60.472
X9.375 Y59.704 Z-0.198
X8.887 Y58.927
X8.399 Y58.104
X7.89 Y57.189
X7.41 Y56.266
X6.976 Y55.372
X6.57 Y54.472 Z-0.199
X6.219 Y53.638
X5.89 Y52.798
X5.524 Y51.785
X5.193 Y50.776
X4.837 Y49.575 Z-0.2
X4.536 Y48.389
X4.295 Y47.303
X4.091 Y46.235
X3.934 Y45.265
X3.817 Y44.405 Z-0.201
X3.718 Y43.516
X3.632 Y42.498
X3.573 Y41.456
X3.545 Y40.482
X3.543 Y39.541 Z-0.202
X3.565 Y38.594
X3.61 Y37.684
X3.685 Y36.678
X3.778 Y35.777
X3.902 Y34.81 Z-0.203
X4.051 Y33.846
X4.214 Y32.946
X4.424 Y31.945
X4.595 Y31.222
X4.827 Y30.322 Z-0.204
X5.113 Y29.329
X5.383 Y28.479
X5.703 Y27.557
X6.046 Y26.644
X6.414 Y25.741 Z-0.205
X6.805 Y24.847
X7.22 Y23.964
X7.658 Y23.093
X8.109 Y22.251
X8.605 Y21.384 Z-0.206
X9.123 Y20.533
X9.611 Y19.777 Z-0.207
X10.105 Y19.051
X10.673 Y18.258
X11.325 Y17.402
X12.001 Y16.565 Z-0.208
X12.679 Y15.775
X13.237 Y15.159
X13.909 Y14.452
X14.541 Y13.817 Z-0.209
X15.353 Y13.048
X16.146 Y12.341
X16.899 Y11.707 Z-0.21
X17.559 Y11.179
X18.29 Y10.621
X19.104 Y10.035
X19.968 Y9.448
X20.791 Y8.922 Z-0.211
X21.614 Y8.426 Z-0.212
X22.377 Y7.992
X23.237 Y7.532
X24.109 Y7.094
X24.992 Y6.68
X25.886 Y6.289 Z-0.213
X26.699 Y5.958
X27.519 Y5.646
X28.44 Y5.323
X29.368 Y5.025 Z-0.214
X30.182 Y4.785 Z-0.215
X31.18 Y4.52
X32.038 Y4.317
X32.831 Y4.146
X33.79 Y3.967 Z-0.216
X34.657 Y3.827
X35.526 Y3.707
X36.485 Y3.599
X37.532 Y3.511 Z-0.217
X38.532 Y3.455
X39.436 Y3.428 Z-0.218
X40.302 Y3.424
X41.216 Y3.441
X42.214 Y3.486 Z-0.219
X43.211 Y3.558
X44.103 Y3.645 Z-0.22
X44.974 Y3.752
X45.896 Y3.888
X46.914 Y4.067
X47.915 Y4.272 Z-0.221
X48.685 Y4.451
X49.35 Y4.614 Z-0.222
X50.505 Y4.94
X51.403 Y5.22
X52.228 Y5.501 Z-0.223
X52.975 Y5.772
X53.893 Y6.132
X54.622 Y6.439 Z-0.224
X55.423 Y6.798
X56.25 Y7.192
X57.063 Y7.606
X57.955 Y8.089 Z-0.225
X58.547 Y8.428 Z-0.226
X59.167 Y8.798 Z-0.225
X59.809 Y9.2 Z-0.226
X60.542 Y9.683
X61.264 Y10.182
X62.052 Y10.758
X62.824 Y11.354 Z-0.227
X63.58 Y11.97 Z-0.228
X64.247 Y12.541
X64.925 Y13.151
X65.343 Y13.545 Z-0.229
X66.009 Y14.196
X66.665 Y14.872
X67.131 Y15.374
X67.778 Y16.104 Z-0.23
X68.343 Y16.775
X68.893 Y17.46
X69.484 Y18.236
X70.055 Y19.027 Z-0.231
X70.601 Y19.828 Z-0.232
X71.012 Y20.462
X71.5 Y21.256
X71.907 Y21.954
X72.344 Y22.746 Z-0.233
X72.749 Y23.525
X73.148 Y24.337
X73.558 Y25.23 Z-0.234
X73.849 Y25.907
X74.178 Y26.721 Z-0.235
X74.509 Y27.597 Z-0.234
X74.819 Y28.491 Z-0.235
X75.045 Y29.198 Z-0.236
X75.296 Y30.04
X75.507 Y30.811
X75.723 Y31.683 Z-0.237
X75.894 Y32.445
X76.089 Y33.428
X76.263 Y34.453
X76.379 Y35.272 Z-0.238
X76.484 Y36.144
X76.567 Y37.018
X76.634 Y37.963
X76.679 Y38.977 Z-0.239
X76.695 Y39.895 Z-0.24
X76.689 Y40.773
X76.661 Y41.648
X76.606 Y42.622
X76.526 Y43.594 Z-0.241
X76.419 Y44.563
X76.302 Y45.433 Z-0.242
X76.147 Y46.397
X75.966 Y47.355
X75.761 Y48.309 Z-0.243
X75.583 Y49.047
X75.341 Y49.956 Z-0.244
X75.089 Y50.817 Z-0.243
X74.791 Y51.746 Z-0.244
X74.468 Y52.667 Z-0.245
X74.157 Y53.488
X73.788 Y54.391
X73.396 Y55.284
X72.98 Y56.166 Z-0.246
X72.568 Y56.986
X72.295 Y57.503
X71.95 Y58.128 Z-0.247
X71.494 Y58.912
X71.034 Y59.661
X70.541 Y60.422
X69.972 Y61.251 Z-0.248
X69.399 Y62.04
X68.866 Y62.737 Z-0.249
X68.316 Y63.421
X67.685 Y64.166
X67.099 Y64.826 Z-0.25
X66.558 Y65.405
X66.081 Y65.903 Z-0.251
X65.224 Y66.737 Z-0.25
X64.649 Y67.269 Z-0.251
X63.992 Y67.851 Z-0.252
X63.321 Y68.417
X62.56 Y69.028 Z-0.251
X61.783 Y69.618 Z-0.252
X61.071 Y70.131 Z-0.253
X60.346 Y70.627
X59.703 Y71.046
X58.838 Y71.581 Z-0.254
X58.08 Y72.024
X57.274 Y72.468 Z-0.255
X56.46 Y72.89
X55.811 Y73.208
X55.015 Y73.578 Z-0.256
X54.353 Y73.868 Z-0.255
X53.649 Y74.159 Z-0.256
X52.772 Y74.499 Z-0.257
X51.983 Y74.782
X51.057 Y75.09
X50.124 Y75.373
X49.291 Y75.603 Z-0.258
X48.397 Y75.826
X47.445 Y76.037
X46.439 Y76.232
X45.429 Y76.4 Z-0.259
X44.463 Y76.533 Z-0.26
X43.59 Y76.63
X42.716 Y76.707
X41.742 Y76.768
X40.767 Y76.804 Z-0.261
X39.872 Y76.814 Z-0.262
X38.962 Y76.801
X37.987 Y76.762
X36.982 Y76.695
X36.011 Y76.605
X35.042 Y76.488 Z-0.263
X34.173 Y76.361 Z-0.264
X33.308 Y76.214
X32.351 Y76.026 Z-0.263
X31.399 Y75.812 Z-0.264
X30.611 Y75.616 Z-0.265
X29.883 Y75.419
X29.075 Y75.178
X28.146 Y74.879 Z-0.266
X27.318 Y74.588
X26.497 Y74.278
X25.593 Y73.91
X24.7 Y73.518 Z-0.267
X23.905 Y73.146 Z-0.268
X23.119 Y72.755
X22.229 Y72.283
X21.342 Y71.782
X20.489 Y71.267 Z-0.269
X19.668 Y70.742
X18.94 Y70.25 Z-0.27
X18.146 Y69.684
X17.367 Y69.097
X16.604 Y68.489
X15.857 Y67.861 Z-0.271
X15.199 Y67.28 Z-0.272
X14.556 Y66.683 Z-0.271
X13.857 Y66.002 Z-0.272
X13.177 Y65.303
X12.581 Y64.658 Z-0.273
X12 Y64
X11.374 Y63.252
X10.767 Y62.488
X10.181 Y61.708 Z-0.274
X9.672 Y60.993 Z-0.275
X9.179 Y60.267
X8.652 Y59.446
X8.147 Y58.611
X7.665 Y57.763 Z-0.276
X7.249 Y56.99 Z-0.277
X6.853 Y56.207 Z-0.276
X6.409 Y55.27
X6.001 Y54.344 Z-0.277
X5.632 Y53.441 Z-0.278
X5.32 Y52.62
X5.028 Y51.792
X4.715 Y50.833 Z-0.279
X4.374 Y49.675 Z-0.28
X4.08 Y48.512
X3.867 Y47.559
X3.677 Y46.602 Z-0.281
X3.529 Y45.737
X3.401 Y44.869
X3.278 Y43.852
X3.183 Y42.832 Z-0.282
X3.119 Y41.859 Z-0.283
X3.084 Y40.981 Z-0.284
X3.068 Y40.051
X3.079 Y39.038
X3.117 Y38.019
X3.184 Y37.003 Z-0.285
X3.264 Y36.129 Z-0.286
X3.366 Y35.24
X3.503 Y34.274
X3.665 Y33.312
X3.852 Y32.355 Z-0.287
X4.042 Y31.497 Z-0.288
X4.267 Y30.586
X4.477 Y29.818
X4.756 Y28.884 Z-0.289
X5.029 Y28.049 Z-0.29
X5.321 Y27.221
X5.668 Y26.31
X6.015 Y25.466 Z-0.291
X6.384 Y24.626 Z-0.292
X6.768 Y23.811
X7.167 Y23.011
X7.644 Y22.117
X8.144 Y21.236 Z-0.293
X8.597 Y20.484 Z-0.294
X9.068 Y19.743
X9.611 Y18.933
X10.176 Y18.138
X10.761 Y17.357 Z-0.295
X11.306 Y16.669 Z-0.296
X11.866 Y15.993
X12.54 Y15.222
X13.235 Y14.469 Z-0.297
X13.926 Y13.76 Z-0.298
X14.478 Y13.221 Z-0.299
X15.173 Y12.574 Z-0.298
X15.94 Y11.896
X16.726 Y11.239 Z-0.299
X17.491 Y10.634 Z-0.3
X18.193 Y10.107 Z-0.301
X18.907 Y9.596
X19.756 Y9.022
X20.62 Y8.472 Z-0.302
X21.456 Y7.97 Z-0.303
X22.22 Y7.538 Z-0.304
X23.035 Y7.103
X23.947 Y6.646
X24.87 Y6.214 Z-0.305
X25.716 Y5.846 Z-0.306
X26.529 Y5.515 Z-0.307
X27.376 Y5.194
X28.298 Y4.87
X29.168 Y4.592 Z-0.308
X29.971 Y4.352 Z-0.309
X30.843 Y4.118
X31.741 Y3.898
X32.738 Y3.683 Z-0.31
X33.561 Y3.525 Z-0.311
X34.404 Y3.386
X35.369 Y3.25
X36.404 Y3.132
X37.393 Y3.047 Z-0.313
X38.311 Y2.992 Z-0.314
X39.091 Y2.963
X40.012 Y2.95 Z-0.313
X41.031 Y2.962 Z-0.314
X41.952 Y2.998 Z-0.316
X42.828 Y3.053
X43.746 Y3.133
X44.774 Y3.249
X45.781 Y3.391 Z-0.318
X46.716 Y3.55 Z-0.319
X47.461 Y3.693
X48.389 Y3.894
X49.476 Y4.158 Z-0.321
X50.627 Y4.483 Z-0.32
X51.382 Y4.717 Z-0.322
X52.122 Y4.963
X52.949 Y5.259
X53.859 Y5.609 Z-0.323
X54.76 Y5.984 Z-0.324
X55.562 Y6.341 Z-0.325
X56.355 Y6.718
X57.226 Y7.157 Z-0.324
X58.085 Y7.62 Z-0.326
X58.847 Y8.056 Z-0.327
X59.599 Y8.509
X60.421 Y9.033
X61.23 Y9.579 Z-0.328
X62.023 Y10.146 Z-0.329
X62.725 Y10.674 Z-0.33
X63.413 Y11.217
X64.191 Y11.868
X64.811 Y12.409 Z-0.332
X65.467 Y13.009 Z-0.333
X66.061 Y13.581 Z-0.332
X66.772 Y14.298 Z-0.333
X67.468 Y15.041 Z-0.334
X68.029 Y15.668 Z-0.335
X68.556 Y16.29
X69.131 Y16.994
X69.708 Y17.744 Z-0.336
X70.249 Y18.482 Z-0.337
X70.751 Y19.203
X71.288 Y20.017
X71.804 Y20.845 Z-0.338
X72.298 Y21.686 Z-0.339
X72.723 Y22.454 Z-0.34
X73.131 Y23.232
X73.561 Y24.107
X73.969 Y24.993 Z-0.341
X74.353 Y25.89 Z-0.342
X74.644 Y26.614
X74.985 Y27.528
X75.302 Y28.45 Z-0.343
X75.596 Y29.381 Z-0.344
X75.842 Y30.239 Z-0.345
X76.036 Y30.968
X76.253 Y31.882
X76.456 Y32.836 Z-0.346
X76.616 Y33.699 Z-0.347
X76.757 Y34.566
X76.889 Y35.533
X76.995 Y36.502 Z-0.348
X77.069 Y37.377 Z-0.349
X77.123 Y38.253 Z-0.35
X77.158 Y39.228
X77.167 Y40.252
X77.148 Y41.276 Z-0.351
X77.11 Y42.154 Z-0.353
X77.05 Y43.029
X76.96 Y44.001
X76.845 Y44.969 Z-0.354
X76.734 Y45.742 Z-0.355
X76.611 Y46.496
X76.42 Y47.495
X76.247 Y48.302 Z-0.357
X76.088 Y48.972
X75.857 Y49.86
X75.604 Y50.748 Z-0.358
X75.369 Y51.5 Z-0.359
X75.141 Y52.183 Z-0.358
X74.83 Y53.053 Z-0.359
X74.51 Y53.88 Z-0.36
X74.175 Y54.691 Z-0.361
X73.779 Y55.583
X73.361 Y56.464
X72.919 Y57.334 Z-0.362
X72.503 Y58.107 Z-0.363
X72.068 Y58.869
X71.564 Y59.704
X71.038 Y60.526 Z-0.364
X70.491 Y61.334 Z-0.365
X69.981 Y62.048 Z-0.366
X69.454 Y62.75
X68.849 Y63.516
X68.224 Y64.265 Z-0.367
X67.679 Y64.888 Z-0.368
X67.123 Y65.496 Z-0.369
X66.413 Y66.24 Z-0.37
X65.559 Y67.071 Z-0.369
X65.054 Y67.539 Z-0.371
X64.398 Y68.123
X63.729 Y68.692
X62.971 Y69.305
X62.274 Y69.84 Z-0.373
X61.566 Y70.358
X60.845 Y70.859
X60.031 Y71.397 Z-0.374
X59.203 Y71.912 Z-0.375
X58.531 Y72.309
X57.765 Y72.738
X56.903 Y73.194 Z-0.376
X56.029 Y73.628 Z-0.377
X55.233 Y73.998 Z-0.378
X54.428 Y74.349
X53.733 Y74.634 Z-0.379
X53.095 Y74.882 Z-0.38
X52.229 Y75.198
X51.351 Y75.492
X50.6 Y75.725 Z-0.381
X49.904 Y75.926
X49.104 Y76.139 Z-0.382
X48.242 Y76.346 Z-0.383
X47.536 Y76.501
X46.724 Y76.662
X45.849 Y76.813 Z-0.385
X45.077 Y76.929
X44.109 Y77.05 Z-0.384
X43.139 Y77.147 Z-0.385
X42.166 Y77.218 Z-0.386
X41.289 Y77.26 Z-0.387
X40.411 Y77.282
X39.436
X38.461 Y77.256 Z-0.388
X37.584 Y77.211 Z-0.389
X36.708 Y77.146
X35.738 Y77.049
X34.77 Y76.927 Z-0.39
X33.902 Y76.795 Z-0.392
X33.037 Y76.644
X32.176 Y76.472
X31.225 Y76.257 Z-0.393
X30.33 Y76.031 Z-0.394
X29.578 Y75.823 Z-0.395
X28.685 Y75.551 Z-0.394
X27.759 Y75.245 Z-0.395
X26.841 Y74.914 Z-0.396
X26.113 Y74.633
X25.302 Y74.298
X24.409 Y73.904 Z-0.397
X23.528 Y73.486 Z-0.398
X22.83 Y73.136 Z-0.399
X22.055 Y72.724 Z-0.398
X21.205 Y72.246 Z-0.399
X20.367 Y71.746 Z-0.4
X19.707 Y71.33 Z-0.401
X18.975 Y70.846
X18.174 Y70.288 Z-0.402
X17.389 Y69.709 Z-0.403
X16.772 Y69.232 Z-0.404
X16.046 Y68.643
X15.219 Y67.935 Z-0.405
X14.682 Y67.45 Z-0.406
X14.136 Y66.939
X13.497 Y66.312
X12.802 Y65.596 Z-0.407
X12.207 Y64.951 Z-0.408
X11.628 Y64.291
X11.002 Y63.543
X10.396 Y62.779
X9.81 Y61.999 Z-0.409
X9.3 Y61.284 Z-0.41
X8.807 Y60.558
X8.253 Y59.696
X7.723 Y58.819 Z-0.411
X7.289 Y58.057 Z-0.412
X6.872 Y57.284 Z-0.413
X6.473 Y56.502
X6.052 Y55.622 Z-0.414
X5.692 Y54.821 Z-0.415
X5.352 Y54.012 Z-0.416
X5.03 Y53.195 Z-0.415
X4.696 Y52.279 Z-0.416
X4.386 Y51.36 Z-0.418
X4.159 Y50.624
X3.895 Y49.694
X3.649 Y48.74 Z-0.419
X3.451 Y47.879 Z-0.42
X3.294 Y47.114
X3.119 Y46.154
X2.96 Y45.118
X2.835 Y44.126 Z-0.422
X2.746 Y43.253 Z-0.423
X2.679 Y42.377
X2.628 Y41.403
X2.602 Y40.428 Z-0.424
X2.601 Y39.453 Z-0.425
X2.619 Y38.672 Z-0.426
X2.659 Y37.795 Z-0.425
X2.727 Y36.822 Z-0.426
X2.82 Y35.851 Z-0.428
X2.913 Y35.076 Z-0.429
X3.051 Y34.111
X3.228 Y33.077
X3.424 Y32.097 Z-0.431
X3.617 Y31.24 Z-0.433
X3.809 Y30.47
X4.075 Y29.503
X4.368 Y28.545
X4.677 Y27.62 Z-0.435
X4.942 Y26.886
X5.258 Y26.067 Z-0.434
X5.632 Y25.166 Z-0.435
X6.029 Y24.275 Z-0.436
X6.363 Y23.57 Z-0.437
X6.756 Y22.785
X7.214 Y21.923
X7.695 Y21.074 Z-0.439
X8.095 Y20.404 Z-0.44
X8.561 Y19.661 Z-0.439
X9.1 Y18.848 Z-0.44
X9.603 Y18.128 Z-0.442
X10.064 Y17.498
X10.658 Y16.725
X11.273 Y15.967 Z-0.443
X11.842 Y15.299 Z-0.445
X12.427 Y14.644 Z-0.446
X13.027 Y14.003
X13.725 Y13.293 Z-0.447
X14.323 Y12.717 Z-0.449
X14.896 Y12.187 Z-0.448
X15.628 Y11.542
X16.376 Y10.916 Z-0.449
X17.063 Y10.37 Z-0.451
X17.685 Y9.898 Z-0.45
X18.475 Y9.326
X19.28 Y8.774 Z-0.452
X20.016 Y8.296 Z-0.453
X20.68 Y7.886
X21.563 Y7.368
X22.461 Y6.874 Z-0.454
X23.24 Y6.471 Z-0.456
X23.941 Y6.127 Z-0.457
X24.827 Y5.719
X25.723 Y5.333 Z-0.458
X26.538 Y5.006 Z-0.46
X27.268 Y4.732 Z-0.461
X28.189 Y4.41
X29.194 Y4.089 Z-0.462
X30.141 Y3.816 Z-0.464
X30.824 Y3.636
X31.704 Y3.422
X32.686 Y3.212 Z-0.465
X33.549 Y3.05 Z-0.466
X34.319 Y2.923 Z-0.467
X35.285 Y2.787 Z-0.466
X36.254 Y2.675 Z-0.467
X37.128 Y2.596 Z-0.469
X37.907 Y2.543
X38.881 Y2.5 Z-0.468
X39.857 Y2.482 Z-0.47
X40.735 Y2.487 Z-0.471
X41.515 Y2.509 Z-0.472
X42.489 Y2.558
X43.462 Y2.634 Z-0.473
X44.335 Y2.723 Z-0.475
X45.109 Y2.819 Z-0.476
X46.074 Y2.962 Z-0.475
X47.083 Y3.138 Z-0.477
X48.092 Y3.343 Z-0.48
X48.756 Y3.495
X49.678 Y3.727
X50.468 Y3.944 Z-0.482
X51.122 Y4.14 Z-0.483
X51.949 Y4.406 Z-0.481
X52.87 Y4.727 Z-0.482
X53.691 Y5.037 Z-0.484
X54.415 Y5.328
X55.312 Y5.713 Z-0.483
X56.198 Y6.121 Z-0.485
X56.986 Y6.507 Z-0.487
X57.679 Y6.866
X58.534 Y7.335 Z-0.486
X59.378 Y7.825 Z-0.488
X60.043 Y8.233 Z-0.49
X60.781 Y8.709
X61.628 Y9.285
X62.459 Y9.884 Z-0.492
X63.158 Y10.415 Z-0.494
X63.769 Y10.9 Z-0.495
X64.518 Y11.525
X65.312 Y12.223 Z-0.496
X65.926 Y12.796 Z-0.498
X66.46 Y13.311 Z-0.499
X67.165 Y14.026
X67.851 Y14.761
X68.433 Y15.418 Z-0.501
X68.938 Y16.013
X69.551 Y16.772 Z-0.5
X70.145 Y17.546 Z-0.501
X70.662 Y18.255 Z-0.503
X71.107 Y18.896 Z-0.502
X71.645 Y19.71
X72.162 Y20.537 Z-0.503
X72.609 Y21.293 Z-0.505
X72.991 Y21.973
X73.449 Y22.834 Z-0.504
X73.885 Y23.707 Z-0.505
X74.257 Y24.502 Z-0.507
X74.573 Y25.216
X74.946 Y26.117 Z-0.506
X75.296 Y27.028 Z-0.508
X75.559 Y27.763 Z-0.51
X75.807 Y28.503 Z-0.509
X76.115 Y29.505 Z-0.51
X76.384 Y30.468 Z-0.512
X76.575 Y31.224 Z-0.513
X76.772 Y32.08
X76.967 Y33.036
X77.137 Y33.996 Z-0.515
X77.256 Y34.768 Z-0.517
X77.37 Y35.638
X77.473 Y36.608
X77.55 Y37.581 Z-0.52
X77.599 Y38.457 Z-0.521
X77.625 Y39.237
X77.634 Y40.286
X77.616 Y41.285 Z-0.524
X77.578 Y42.163 Z-0.526
X77.527 Y42.941
X77.441 Y43.913
X77.33 Y44.882 Z-0.528
X77.223 Y45.655 Z-0.53
X77.084 Y46.522
X76.905 Y47.481 Z-0.531
X76.701 Y48.439 Z-0.533
X76.57 Y48.995 Z-0.534
X76.319 Y49.968
X76.006 Y51.052
X75.697 Y52.016 Z-0.536
X75.441 Y52.753 Z-0.537
X75.135 Y53.576 Z-0.536
X74.754 Y54.526
X74.347 Y55.466 Z-0.537
X73.978 Y56.263 Z-0.539
X73.635 Y56.964
X73.186 Y57.83 Z-0.538
X72.715 Y58.684 Z-0.54
X72.272 Y59.442 Z-0.542
X71.864 Y60.108
X71.335 Y60.927
X70.785 Y61.732 Z-0.544
X70.33 Y62.366 Z-0.546
X69.802 Y63.068
X69.167 Y63.872
X68.51 Y64.657 Z-0.548
X67.886 Y65.366 Z-0.551
X67.423 Y65.868
X66.699 Y66.615 Z-0.55
X65.984 Y67.319 Z-0.552
X65.331 Y67.926 Z-0.554
X64.748 Y68.444
X64.005 Y69.076 Z-0.553
X63.245 Y69.688 Z-0.554
X62.548 Y70.222 Z-0.555
X61.919 Y70.683
X61.119 Y71.241
X60.304 Y71.778 Z-0.556
X59.56 Y72.244 Z-0.558
X58.889 Y72.643
X58.04 Y73.122
X57.178 Y73.58 Z-0.56
X56.481 Y73.93 Z-0.562
X55.688 Y74.306
X54.752 Y74.722
X53.805 Y75.112 Z-0.564
X52.985 Y75.427 Z-0.566
X52.25 Y75.69 Z-0.567
X51.356 Y75.988
X50.49 Y76.251 Z-0.569
X49.735 Y76.462 Z-0.57
X48.95 Y76.666
X47.845 Y76.92
X47.102 Y77.071 Z-0.573
X46.334 Y77.211
X45.371 Y77.364 Z-0.572
X44.404 Y77.492 Z-0.573
X43.531 Y77.585 Z-0.575
X42.753 Y77.652
X41.78 Y77.712
X40.805 Y77.747 Z-0.576
X39.927 Y77.757 Z-0.578
X39.146 Y77.749
X38.123 Y77.714
X37.101 Y77.651 Z-0.579
X36.226 Y77.576 Z-0.581
X35.45 Y77.491 Z-0.582
X34.483 Y77.363 Z-0.581
X33.52 Y77.211 Z-0.583
X32.656 Y77.052 Z-0.585
X31.892 Y76.894
X30.941 Y76.675
X30.026 Y76.44 Z-0.588
X29.339 Y76.245 Z-0.589
X28.493 Y75.986 Z-0.587
X27.567 Y75.677 Z-0.588
X26.742 Y75.38 Z-0.589
X26.013 Y75.099
X25.111 Y74.727
X24.219 Y74.333 Z-0.59
X23.425 Y73.958 Z-0.592
X22.727 Y73.61
X21.864 Y73.155 Z-0.591
X21.014 Y72.677 Z-0.593
X20.259 Y72.229 Z-0.595
X19.596 Y71.816
X18.74 Y71.254
X17.9 Y70.669 Z-0.597
X17.192 Y70.15 Z-0.6
X16.573 Y69.674
X15.813 Y69.063
X15.052 Y68.417 Z-0.603
X14.508 Y67.93 Z-0.604
X13.882 Y67.35
X13.129 Y66.613
X12.342 Y65.798 Z-0.606
X11.693 Y65.085 Z-0.607
X11.181 Y64.496 Z-0.608
X10.62 Y63.82 Z-0.607
X10.015 Y63.055
X9.487 Y62.354 Z-0.609
X9.032 Y61.72
X8.481 Y60.915 Z-0.608
X7.951 Y60.096 Z-0.609
X7.492 Y59.348 Z-0.611
X7.098 Y58.674
X6.626 Y57.82
X6.176 Y56.955 Z-0.613
X5.831 Y56.255 Z-0.615
X5.501 Y55.547 Z-0.614
X5.11 Y54.654 Z-0.616
X4.776 Y53.842 Z-0.618
X4.496 Y53.113 Z-0.619
X4.167 Y52.195 Z-0.62
X3.849 Y51.23 Z-0.622
X3.596 Y50.382 Z-0.623
X3.388 Y49.63
X3.157 Y48.721 Z-0.624
X2.932 Y47.711 Z-0.625
X2.763 Y46.849 Z-0.626
X2.628 Y46.08
X2.483 Y45.116
X2.362 Y44.148 Z-0.627
X2.275 Y43.274 Z-0.629
X2.214 Y42.496
X2.158 Y41.474
X2.13 Y40.45 Z-0.63
X2.128 Y39.572 Z-0.632
X2.143 Y38.792 Z-0.633
X2.185 Y37.817 Z-0.632
X2.251 Y36.844 Z-0.635
X2.332 Y35.97 Z-0.637
X2.421 Y35.194
X2.562 Y34.18
X2.73 Y33.169 Z-0.64
X2.896 Y32.307 Z-0.642
X3.04 Y31.633
X3.301 Y30.545 Z-0.643
X3.601 Y29.442
X3.923 Y28.381 Z-0.645
X4.247 Y27.417 Z-0.647
X4.514 Y26.683
X4.832 Y25.865 Z-0.646
X5.206 Y24.964
X5.563 Y24.162 Z-0.648
X5.896 Y23.456
X6.332 Y22.583 Z-0.647
X6.79 Y21.722 Z-0.649
X7.221 Y20.957 Z-0.651
X7.619 Y20.286
X8.135 Y19.458 Z-0.65
X8.672 Y18.644 Z-0.653
X9.117 Y18.003 Z-0.655
X9.574 Y17.371 Z-0.654
X10.165 Y16.594 Z-0.656
X10.712 Y15.908 Z-0.659
X11.149 Y15.383
X11.822 Y14.611
X12.515 Y13.857 Z-0.662
X13.173 Y13.177 Z-0.666
X13.658 Y12.697
X14.398 Y12.003 Z-0.664
X15.126 Y11.353 Z-0.666
X15.72 Y10.847 Z-0.667
X16.401 Y10.293
X17.23 Y9.651 Z-0.666
X18.037 Y9.061 Z-0.668
X18.758 Y8.56 Z-0.67
X19.408 Y8.128
X20.275 Y7.583 Z-0.669
X21.156 Y7.06 Z-0.671
X21.922 Y6.631 Z-0.674
X22.611 Y6.265 Z-0.675
X23.483 Y5.827 Z-0.674
X24.365 Y5.411 Z-0.677
X25.078 Y5.094 Z-0.68
X25.798 Y4.793
X26.706 Y4.436 Z-0.682
X27.531 Y4.135 Z-0.686
X28.16 Y3.92
X29.236 Y3.582
X30.332 Y3.274 Z-0.687
X31.449 Y2.995 Z-0.689
X32.517 Y2.762 Z-0.691
X33.041 Y2.661 Z-0.692
X34.002 Y2.494 Z-0.691
X34.968 Y2.352
X35.839 Y2.246 Z-0.693
X36.615 Y2.167
X37.588 Y2.092 Z-0.692
X38.562 Y2.041 Z-0.694
X39.342 Y2.018 Z-0.696
X40.122 Y2.011 Z-0.695
X41.098 Y2.025 Z-0.696
X41.975 Y2.058 Z-0.699
X42.657 Y2.098
X43.629 Y2.176 Z-0.7
X44.599 Y2.278 Z-0.703
X45.373 Y2.378 Z-0.705
X46.241 Y2.509 Z-0.706
X47.16 Y2.67 Z-0.708
X48.033 Y2.847 Z-0.71
X48.7 Y2.995
X49.597 Y3.219 Z-0.709
X50.632 Y3.503 Z-0.711
X51.38 Y3.726 Z-0.714
X52.133 Y3.967
X53.053 Y4.29
X53.874 Y4.6 Z-0.716
X54.598 Y4.892
X55.494 Y5.277 Z-0.715
X56.38 Y5.685 Z-0.717
X57.082 Y6.027 Z-0.719
X57.776 Y6.384 Z-0.718
X58.633 Y6.849 Z-0.719
X59.394 Y7.286 Z-0.722
X60.062 Y7.69
X60.886 Y8.213
X61.696 Y8.757 Z-0.725
X62.412 Y9.264 Z-0.728
X63.04 Y9.728
X63.81 Y10.326
X64.567 Y10.945 Z-0.732
X65.043 Y11.353 Z-0.733
X65.768 Y11.999
X66.434 Y12.626 Z-0.735
X67.003 Y13.187 Z-0.736
X67.501 Y13.693
X68.29 Y14.539 Z-0.737
X68.956 Y15.3 Z-0.738
X69.518 Y15.974 Z-0.74
X70.004 Y16.584 Z-0.738
X70.595 Y17.361 Z-0.737
X71.166 Y18.152 Z-0.74
X71.553 Y18.714 Z-0.741
X72.037 Y19.447 Z-0.739
X72.554 Y20.274 Z-0.741
X73.002 Y21.029 Z-0.743
X73.385 Y21.709
X73.868 Y22.612
X74.326 Y23.528 Z-0.746
X74.658 Y24.234 Z-0.749
X74.976 Y24.947
X75.353 Y25.847 Z-0.75
X75.673 Y26.664 Z-0.754
X75.909 Y27.305 Z-0.755
X76.235 Y28.255 Z-0.756
X76.496 Y29.094 Z-0.758
X76.686 Y29.75
X76.936 Y30.693 Z-0.756
X77.163 Y31.642 Z-0.757
X77.346 Y32.5 Z-0.759
X77.493 Y33.267
X77.654 Y34.229 Z-0.757
X77.79 Y35.195 Z-0.759
X77.882 Y35.97 Z-0.761
X77.958 Y36.747 Z-0.76
X78.031 Y37.719 Z-0.761
X78.075 Y38.596 Z-0.764
X78.098 Y39.376 Z-0.765
X78.103 Y40.352 Z-0.764
X78.085 Y41.327 Z-0.767
X78.046 Y42.204 Z-0.77
X77.996 Y42.983
X77.91 Y43.955 Z-0.771
X77.8 Y44.924 Z-0.775
X77.694 Y45.697 Z-0.777
X77.556 Y46.564 Z-0.778
X77.376 Y47.547 Z-0.78
X77.22 Y48.278 Z-0.782
X77.052 Y49.015
X76.802 Y49.992
X76.488 Y51.093 Z-0.784
X76.188 Y52.042 Z-0.787
X76.046 Y52.463 Z-0.786
X75.799 Y53.155 Z-0.787
X75.522 Y53.885
X75.193 Y54.699 Z-0.785
X74.806 Y55.595 Z-0.787
X74.48 Y56.304 Z-0.788
X74.14 Y57.006 Z-0.787
X73.695 Y57.874 Z-0.788
X73.276 Y58.646 Z-0.79
X72.889 Y59.323 Z-0.791
X72.386 Y60.159 Z-0.79
X71.862 Y60.982 Z-0.793
X71.428 Y61.63 Z-0.796
X70.981 Y62.27 Z-0.795
X70.405 Y63.057 Z-0.797
X69.869 Y63.752 Z-0.801
X69.379 Y64.36 Z-0.802
X68.942 Y64.882 Z-0.804
X68.493 Y65.396 Z-0.805
X67.918 Y66.031
X67.187 Y66.794
X66.531 Y67.448 Z-0.808
X66.037 Y67.919 Z-0.809
X65.289 Y68.599 Z-0.807
X64.55 Y69.236 Z-0.809
X63.948 Y69.733 Z-0.811
X63.336 Y70.217 Z-0.81
X62.557 Y70.804 Z-0.811
X61.844 Y71.316 Z-0.813
X61.2 Y71.757
X60.383 Y72.289 Z-0.812
X59.552 Y72.801 Z-0.815
X58.879 Y73.195 Z-0.817
X58.112 Y73.622
X57.248 Y74.076
X56.373 Y74.508 Z-0.821
X55.755 Y74.797 Z-0.822
X54.952 Y75.152 Z-0.821
X54.051 Y75.525 Z-0.825
X53.323 Y75.807 Z-0.827
X52.656 Y76.051
X51.691 Y76.377 Z-0.829
X51.244 Y76.519 Z-0.83
X50.251 Y76.812
X49.166 Y77.1 Z-0.831
X48.046 Y77.361 Z-0.833
X46.919 Y77.588 Z-0.835
X46.382 Y77.683 Z-0.836
X45.418 Y77.833 Z-0.834
X44.451 Y77.959
X43.578 Y78.052 Z-0.836
X42.898 Y78.11 Z-0.835
X41.924 Y78.173
X40.95 Y78.211 Z-0.837
X40.267 Y78.223 Z-0.838
X39.291 Y78.219 Z-0.837
X38.316 Y78.19 Z-0.839
X37.537 Y78.15 Z-0.842
X36.759 Y78.094
X35.703 Y77.992
X34.722 Y77.872 Z-0.846
X33.95 Y77.759 Z-0.849
X33.18 Y77.631
X32.235 Y77.452 Z-0.852
X31.406 Y77.27 Z-0.854
X30.647 Y77.088 Z-0.853
X29.638 Y76.823 Z-0.854
X28.677 Y76.539 Z-0.855
X27.934 Y76.3 Z-0.856
X27.196 Y76.046 Z-0.854
X26.281 Y75.708 Z-0.855
X25.465 Y75.384 Z-0.857
X24.746 Y75.081 Z-0.856
X23.856 Y74.682 Z-0.855
X22.976 Y74.26 Z-0.858
X22.28 Y73.907 Z-0.86
X21.506 Y73.493 Z-0.859
X20.583 Y72.969
X19.737 Y72.459 Z-0.862
X19.079 Y72.041 Z-0.865
X18.348 Y71.555
X17.489 Y70.953 Z-0.866
X16.686 Y70.357 Z-0.87
X16.146 Y69.939 Z-0.873
X15.464 Y69.386
X14.671 Y68.712 Z-0.876
X13.914 Y68.028 Z-0.879
X13.416 Y67.557 Z-0.88
X12.763 Y66.917 Z-0.879
X11.96 Y66.082 Z-0.88
X11.194 Y65.237 Z-0.883
X10.566 Y64.501 Z-0.885
X10.133 Y63.973
X9.532 Y63.205 Z-0.883
X8.951 Y62.421 Z-0.884
X8.444 Y61.704 Z-0.886
X8.062 Y61.139 Z-0.885
X7.533 Y60.319 Z-0.886
X7.075 Y59.57 Z-0.888
X6.682 Y58.896
X6.21 Y58.042 Z-0.887
X5.76 Y57.177 Z-0.89
X5.458 Y56.564 Z-0.892
X5.085 Y55.769
X4.693 Y54.876 Z-0.894
X4.395 Y54.155 Z-0.897
X4.112 Y53.427
X3.752 Y52.43
X3.44 Y51.493 Z-0.902
X3.239 Y50.84 Z-0.904
X2.997 Y49.996
X2.744 Y49.021 Z-0.907
X2.56 Y48.23 Z-0.91
X2.401 Y47.466 Z-0.909
X2.21 Y46.435 Z-0.907
X2.054 Y45.447 Z-0.909
X1.963 Y44.771 Z-0.911
X1.862 Y43.898 Z-0.91
X1.774 Y42.927 Z-0.911
X1.721 Y42.148 Z-0.914
X1.684 Y41.369 Z-0.913
X1.659 Y40.321
X1.661 Y39.321 Z-0.917
X1.678 Y38.638 Z-0.919
X1.717 Y37.761 Z-0.918
X1.783 Y36.788 Z-0.921
X1.864 Y35.914 Z-0.925
X1.94 Y35.235
X2.07 Y34.268 Z-0.927
X2.208 Y33.401 Z-0.932
X2.327 Y32.741
X2.558 Y31.619 Z-0.933
X2.829 Y30.482 Z-0.934
X3.135 Y29.348 Z-0.935
X3.47 Y28.243 Z-0.938
X3.807 Y27.24 Z-0.941
X4.027 Y26.629 Z-0.942
X4.379 Y25.719 Z-0.939
X4.754 Y24.819 Z-0.94
X5.07 Y24.105 Z-0.942
X5.4 Y23.398 Z-0.94
X5.872 Y22.448 Z-0.939
X6.334 Y21.575 Z-0.942
X6.666 Y20.979 Z-0.943
X7.109 Y20.22 Z-0.941
X7.621 Y19.39 Z-0.944
X8.045 Y18.735 Z-0.947
X8.483 Y18.089 Z-0.946
X9.048 Y17.294 Z-0.948
X9.573 Y16.59 Z-0.952
X9.993 Y16.051
X10.667 Y15.225 Z-0.953
X11.307 Y14.48 Z-0.958
X11.763 Y13.972 Z-0.961
X12.363 Y13.331 Z-0.962
X13.051 Y12.63 Z-0.966
X13.55 Y12.147 Z-0.968
X14.121 Y11.616 Z-0.965
X14.851 Y10.968 Z-0.966
X15.446 Y10.463 Z-0.968
X16.051 Y9.97 Z-0.966
X16.821 Y9.371
X17.526 Y8.848 Z-0.969
X18.083 Y8.453 Z-0.968
X18.89 Y7.905
X19.711 Y7.378 Z-0.972
X20.209 Y7.072
X21.093 Y6.554
X21.99 Y6.059 Z-0.976
X22.595 Y5.743 Z-0.98
X23.293 Y5.394 Z-0.978
X24.175 Y4.978 Z-0.983
X24.799 Y4.7 Z-0.986
X25.608 Y4.358 Z-0.987
X26.414 Y4.039 Z-0.991
X26.902 Y3.857 Z-0.993
X27.932 Y3.497
X28.909 Y3.187 Z-0.994
X29.888 Y2.904 Z-0.997
X30.453 Y2.754 Z-0.998
X31.381 Y2.526
X32.513 Y2.281 Z-1
X33.651 Y2.07 Z-1.003
X34.1 Y1.998 Z-1.004
X34.86 Y1.887
X35.634 Y1.789 Z-1.006
X36.41 Y1.708 Z-1.005
X37.383 Y1.627 Z-1.006
X38.162 Y1.581 Z-1.009
X38.941 Y1.55 Z-1.008
X39.99 Y1.534
X40.99 Y1.545 Z-1.012
X41.672 Y1.567 Z-1.014
X42.549 Y1.614 Z-1.012
X43.521 Y1.689 Z-1.015
X44.298 Y1.767 Z-1.018
X45.073 Y1.86 Z-1.017
X46.038 Y1.999 Z-1.019
X46.904 Y2.144 Z-1.022
X47.575 Y2.271
X48.529 Y2.473 Z-1.023
X49.384 Y2.676 Z-1.027
X50.045 Y2.846
X50.985 Y3.11
X51.883 Y3.389 Z-1.03
X52.438 Y3.575 Z-1.029
X53.403 Y3.919 Z-1.027
X54.358 Y4.288 Z-1.028
X54.99 Y4.548 Z-1.031
X55.706 Y4.859 Z-1.028
X56.591 Y5.267 Z-1.03
X57.293 Y5.61 Z-1.033
X57.987 Y5.966 Z-1.031
X58.844 Y6.431 Z-1.033
X59.522 Y6.819 Z-1.037
X60.191 Y7.219 Z-1.036
X61.089 Y7.785 Z-1.037
X61.91 Y8.334 Z-1.042
X62.39 Y8.669 Z-1.044
X63.178 Y9.243 Z-1.045
X63.952 Y9.837 Z-1.049
X64.485 Y10.264 Z-1.053
X65.095 Y10.771
X65.867 Y11.45 Z-1.056
X66.083 Y11.647
X66.761 Y12.283 Z-1.058
X67.27 Y12.784 Z-1.059
X67.835 Y13.358
X68.643 Y14.225 Z-1.06
X69.424 Y15.116 Z-1.063
X69.87 Y15.655 Z-1.065
X70.357 Y16.265 Z-1.063
X71.005 Y17.12 Z-1.061
X71.63 Y17.993 Z-1.062
X72.069 Y18.638 Z-1.064
X72.443 Y19.209 Z-1.061
X73.01 Y20.12 Z-1.062
X73.504 Y20.961 Z-1.065
X73.79 Y21.472
X74.25 Y22.332
X74.73 Y23.292 Z-1.068
X75.063 Y23.997 Z-1.071
X75.382 Y24.71 Z-1.07
X75.797 Y25.699 Z-1.072
X76.151 Y26.608 Z-1.077
X76.352 Y27.158 Z-1.079
X76.684 Y28.127 Z-1.08
X76.991 Y29.104 Z-1.085
X77.181 Y29.76 Z-1.089
X77.379 Y30.493 Z-1.088
X77.583 Y31.34 Z-1.091
X77.71 Y31.911 Z-1.09
X77.902 Y32.868 Z-1.087
X78.085 Y33.925 Z-1.089
X78.201 Y34.697 Z-1.091
X78.301 Y35.471 Z-1.088
X78.413 Y36.538
X78.489 Y37.51 Z-1.092
X78.524 Y38.095
X78.563 Y39.118
X78.575 Y40.142 Z-1.095
X78.569 Y40.825 Z-1.099
X78.546 Y41.605 Z-1.097
X78.491 Y42.677 Z-1.101
X78.423 Y43.552 Z-1.106
X78.357 Y44.232 Z-1.107
X78.23 Y45.297 Z-1.109
X78.077 Y46.335 Z-1.115
X77.969 Y46.949 Z-1.116
X77.801 Y47.829 Z-1.117
X77.581 Y48.834 Z-1.118
X77.335 Y49.829 Z-1.121
X77.183 Y50.394 Z-1.122
X76.886 Y51.41
X76.52 Y52.539 Z-1.123
X76.111 Y53.68 Z-1.125
X75.792 Y54.495 Z-1.128
X75.531 Y55.126
X75.138 Y56.019 Z-1.127
X74.724 Y56.902 Z-1.13
X74.421 Y57.514 Z-1.132
X74.015 Y58.293 Z-1.131
X73.543 Y59.147 Z-1.133
X73.151 Y59.821 Z-1.136
X72.745 Y60.488 Z-1.135
X72.219 Y61.309 Z-1.136
X71.783 Y61.956 Z-1.14
X71.391 Y62.516 Z-1.138
X70.814 Y63.302 Z-1.14
X70.338 Y63.921 Z-1.144
X69.85 Y64.53 Z-1.142
X69.223 Y65.277 Z-1.144
X68.708 Y65.863 Z-1.148
X68.248 Y66.368 Z-1.146
X67.575 Y67.074 Z-1.149
X67.036 Y67.614 Z-1.153
X66.495 Y68.137 Z-1.152
X65.799 Y68.777 Z-1.153
X65.286 Y69.228 Z-1.154
X64.616 Y69.795 Z-1.151
X63.779 Y70.467
X63.003 Y71.058 Z-1.154
X62.53 Y71.403
X61.671 Y72.004 Z-1.153
X60.837 Y72.555 Z-1.156
X60.259 Y72.919 Z-1.159
X59.507 Y73.373 Z-1.158
X58.575 Y73.904 Z-1.16
X57.715 Y74.364 Z-1.165
X57.194 Y74.63 Z-1.166
X56.272 Y75.077
X55.339 Y75.5 Z-1.172
X54.621 Y75.805 Z-1.177
X53.881 Y76.102
X52.822 Y76.494 Z-1.178
X51.671 Y76.881 Z-1.179
X50.578 Y77.211 Z-1.182
X49.783 Y77.428 Z-1.185
X49.194 Y77.58 Z-1.184
X48.027 Y77.849 Z-1.186
X46.837 Y78.084 Z-1.188
X45.669 Y78.278 Z-1.191
X44.826 Y78.392 Z-1.193
X44.147 Y78.471 Z-1.191
X43.079 Y78.57 Z-1.188
X42.008 Y78.641 Z-1.189
X41.229 Y78.674 Z-1.192
X40.546 Y78.69 Z-1.189
X39.473 Y78.691 Z-1.19
X38.498 Y78.666 Z-1.193
X37.913 Y78.64
X36.867 Y78.572
X35.871 Y78.48 Z-1.197
X35.289 Y78.415 Z-1.2
X34.322 Y78.287
X33.263 Y78.119 Z-1.203
X32.304 Y77.941 Z-1.209
X31.73 Y77.822 Z-1.21
X30.708 Y77.589 Z-1.212
X29.786 Y77.354 Z-1.219
X29.316 Y77.224 Z-1.22
X28.304 Y76.917 Z-1.216
X27.286 Y76.577 Z-1.217
X26.552 Y76.313 Z-1.219
X25.914 Y76.07 Z-1.215
X24.919 Y75.667 Z-1.216
X24.115 Y75.316 Z-1.219
X23.494 Y75.031 Z-1.218
X22.529 Y74.562
X21.577 Y74.066 Z-1.221
X20.894 Y73.69 Z-1.225
X20.302 Y73.349 Z-1.223
X19.384 Y72.794 Z-1.227
X18.644 Y72.321 Z-1.233
X18.076 Y71.941 Z-1.234
X17.198 Y71.326 Z-1.236
X16.336 Y70.687 Z-1.242
X15.72 Y70.207 Z-1.249
X15.152 Y69.746
X14.256 Y68.977 Z-1.251
X13.357 Y68.156 Z-1.252
X12.496 Y67.318 Z-1.254
X11.694 Y66.49 Z-1.258
X11.204 Y65.956 Z-1.261
X10.714 Y65.407 Z-1.26
X9.945 Y64.496 Z-1.262
X9.25 Y63.618 Z-1.263
X8.723 Y62.916 Z-1.267
X8.38 Y62.442 Z-1.265
X7.824 Y61.64 Z-1.266
X7.448 Y61.071 Z-1.27
X7.029 Y60.412 Z-1.267
X6.525 Y59.577 Z-1.27
X6.232 Y59.07 Z-1.273
X5.785 Y58.258 Z-1.271
X5.313 Y57.349 Z-1.274
X5.012 Y56.737 Z-1.278
X4.681 Y56.03 Z-1.275
X4.287 Y55.137 Z-1.28
X4.061 Y54.597 Z-1.282
X3.738 Y53.781 Z-1.281
X3.401 Y52.866 Z-1.286
X3.21 Y52.313 Z-1.288
X2.895 Y51.338
X2.606 Y50.355 Z-1.292
X2.452 Y49.79 Z-1.296
X2.235 Y48.928 Z-1.295
X2.023 Y47.976 Z-1.297
X1.907 Y47.403 Z-1.298
X1.741 Y46.491 Z-1.295
X1.582 Y45.479 Z-1.297
X1.491 Y44.802 Z-1.3
X1.402 Y44.027 Z-1.296
X1.304 Y42.958 Z-1.299
X1.257 Y42.277 Z-1.303
X1.217 Y41.498 Z-1.301
X1.188 Y40.425 Z-1.304
X1.186 Y39.547 Z-1.309
X1.199 Y38.865
X1.241 Y37.792 Z-1.31
X1.314 Y36.722 Z-1.315
X1.375 Y36.042 Z-1.321
X1.459 Y35.266 Z-1.32
X1.557 Y34.504 Z-1.327
X1.637 Y33.95
X1.837 Y32.784 Z-1.328
X2.032 Y31.815 Z-1.331
X2.162 Y31.233 Z-1.333
X2.379 Y30.33
X2.679 Y29.224 Z-1.334
X3.018 Y28.104 Z-1.338
X3.337 Y27.153 Z-1.341
X3.522 Y26.63 Z-1.342
X3.922 Y25.579 Z-1.343
X4.269 Y24.743
X4.504 Y24.207
X4.912 Y23.321 Z-1.339
X5.387 Y22.358 Z-1.34
X5.702 Y21.753 Z-1.343
X6.075 Y21.067 Z-1.339
X6.61 Y20.137 Z-1.341
X7.015 Y19.47 Z-1.345
X7.38 Y18.893 Z-1.343
X7.974 Y17.999 Z-1.345
X8.534 Y17.201 Z-1.35
X8.88 Y16.728
X9.472 Y15.953 Z-1.351
X10.082 Y15.192 Z-1.358
X10.394 Y14.817
X11.097 Y14.006 Z-1.361
X11.822 Y13.215 Z-1.368
X12.294 Y12.722 Z-1.373
X12.783 Y12.23
X13.338 Y11.697 Z-1.377
X13.84 Y11.234 Z-1.373
X14.644 Y10.524 Z-1.371
X15.392 Y9.897 Z-1.373
X15.848 Y9.53
X16.619 Y8.933 Z-1.37
X17.485 Y8.299 Z-1.374
X18.045 Y7.908 Z-1.377
X18.774 Y7.419 Z-1.375
X19.68 Y6.844 Z-1.377
X20.516 Y6.342 Z-1.383
X21.024 Y6.051
X21.88 Y5.583 Z-1.385
X22.747 Y5.136 Z-1.392
X23.184 Y4.92
X24.156 Y4.465 Z-1.396
X25.066 Y4.067 Z-1.404
X25.518 Y3.882 Z-1.405
X26.422 Y3.529 Z-1.406
X27.299 Y3.215 Z-1.409
X27.86 Y3.023 Z-1.41
X28.948 Y2.681 Z-1.411
X30.039 Y2.373 Z-1.412
X31.174 Y2.088 Z-1.416
X31.886 Y1.93 Z-1.418
X32.607 Y1.78
X33.786 Y1.568 Z-1.42
